; HEADER_BLOCK_START
; generated by Creality_Print V5.1.6.10470 on 2025-01-07 at 14:14:36
; total layer number: 45
; filament_density: 1.24
; filament_diameter: 1.75
; max_z_height: 9.50
; HEADER_BLOCK_END

; MINX = 78.82
; MINY = 79.50
; MINZ = 0.00
; MAXX = 141.18
; MAXY = 121.50
; MAXZ = 8.00

; THUMBNAIL_BLOCK_START

;
; THUMBNAIL_BLOCK_END

; external perimeters extrusion width = 0.42mm
; perimeters extrusion width = 0.45mm
; infill extrusion width = 0.45mm
; solid infill extrusion width = 0.45mm
; top infill extrusion width = 0.42mm
; support material extrusion width = 0.38mm
; first layer extrusion width = 0.50mm

; external perimeters extrusion width = 0.42mm
; perimeters extrusion width = 0.45mm
; infill extrusion width = 0.45mm
; solid infill extrusion width = 0.45mm
; top infill extrusion width = 0.42mm
; support material extrusion width = 0.38mm
; first layer extrusion width = 0.50mm

; external perimeters extrusion width = 0.42mm
; perimeters extrusion width = 0.45mm
; infill extrusion width = 0.45mm
; solid infill extrusion width = 0.45mm
; top infill extrusion width = 0.42mm
; support material extrusion width = 0.38mm
; first layer extrusion width = 0.50mm

; external perimeters extrusion width = 0.42mm
; perimeters extrusion width = 0.45mm
; infill extrusion width = 0.45mm
; solid infill extrusion width = 0.45mm
; top infill extrusion width = 0.42mm
; support material extrusion width = 0.38mm
; first layer extrusion width = 0.50mm

; EXECUTABLE_BLOCK_START
M73 P0 R63
M201 X500 Y500 Z100 E5000
M203 X500 Y500 Z10 E60
M204 P500 R1000 T500
M205 X12.00 Y12.00 Z0.40 E5.00 ; sets the jerk limits, mm/sec
;TYPE:Custom
G90 ; use absolute coordinates
M83 ; extruder relative mode
M104 S150 ; set temporary nozzle temp to prevent oozing during homing
M140 S60 ; set final bed temp
G4 S30 ; allow partial nozzle warmup
G28 ; home all axis and restore leveling
G1 Z50 F240
G1 X2.0 Y10 F3000
M104 S220 ; set final nozzle temp
M190 S60 ; wait for bed temp to stabilize
M109 S220 ; wait for nozzle temp to stabilize
G1 Z0.28 F240
G92 E0
G1 X2.0 Y140 E10 F1500 ; prime the nozzle
G1 X2.3 Y140 F5000
G92 E0
G1 X2.3 Y10 E10 F1200 ; prime the nozzle
G92 E0
G90
G21
M83 ; use relative distances for extrusion
; filament start gcode
M106 S0
;LAYER_CHANGE
;Z:0.2
;HEIGHT:0.2
;BEFORE_LAYER_CHANGE
;0.2
G92 E0

G1 E-1 F2400
;_SET_FAN_SPEED_CHANGING_LAYER
M204 S500
M205 X8 Y8
; printing object arm_frame_ver2_fix1.STEP id:0 copy 0
M73 P0 R62
G1 Z.2 F9600
G1 X126.104 Y76.262
G1 Z.2
M73 P1 R62
G1 E1 F2400
;TYPE:Support
;WIDTH:0.5
G1 F1800
G1 X126.104 Y89.397 E.47426
G1 X125.079 Y90.423 E.05234
G1 X123.267 Y90.423 E.06542
G1 X123.267 Y92.234 E.06542
G1 X122.242 Y93.26 E.05234
G1 X120.43 Y93.26 E.06542
G1 X120.43 Y95.072 E.06542
G1 X119.405 Y96.097 E.05234
G1 X117.593 Y96.097 E.06542
G1 X117.593 Y97.909 E.06542
G1 X116.568 Y98.934 E.05234
G1 X114.756 Y98.934 E.06542
G1 X114.756 Y100.746 E.06542
G1 X113.73 Y101.771 E.05234
G1 X94.921 Y101.771 E.67913
G1 X93.896 Y100.746 E.05234
G1 X93.896 Y76.262 E.884
G1 X94.921 Y75.237 E.05234
G1 X125.079 Y75.237 E1.08887
G1 X126.055 Y76.214 E.04987
G1 E-.7 F2400
;WIPE_START
G1 F1800
G1 X125.348 Y75.507 E-.3
;WIPE_END
G1 Z.4 F9600
G1 X123.205 Y90.011 Z.4
G1 Z.2
G1 E1 F2400
G1 F1800
G1 X123.205 Y75.649 E.51858
G1 X123.712 Y75.649 E.01834
G1 X123.712 Y90.011 E.51858
G1 X124.22 Y90.011 E.01834
G1 X124.22 Y75.649 E.51858
G1 X124.728 Y75.649 E.01834
G1 X124.728 Y90.011 E.51858
G2 X125.236 Y89.684 I.09 J-.418 E.02424
G1 X125.236 Y75.976 E.49493
G1 X125.693 Y76.433 E.02331
G1 X125.693 Y89.227 E.46195
G1 X125.398 Y89.522 E.01506
G1 E-.7 F2400
;WIPE_START
G1 F1800
G1 X125.693 Y89.227 E-.12515
G1 X125.693 Y88.644 E-.17485
;WIPE_END
G1 Z.4 F9600
G1 X120.386 Y92.848 Z.4
G1 Z.2
G1 E1 F2400
G1 F1800
G1 X120.665 Y92.848 E.01009
G1 X120.665 Y75.649 E.62101
G1 X121.173 Y75.649 E.01834
G1 X121.173 Y92.848 E.62101
G1 X121.681 Y92.848 E.01834
G1 X121.681 Y75.649 E.62101
G1 X122.189 Y75.649 E.01834
G1 X122.189 Y92.731 E.61677
G1 X122.697 Y92.223 E.02593
G1 X122.697 Y75.649 E.59844
G1 X122.976 Y75.649 E.01009
G1 E-.7 F2400
;WIPE_START
G1 F1800
G1 X122.697 Y75.649 E-.0838
G1 X122.697 Y76.369 E-.2162
;WIPE_END
G1 Z.4 F9600
G1 X94.602 Y76.138 Z.4
G1 Z.2
G1 E1 F2400
G1 F1800
G1 X94.307 Y76.433 E.01506
G1 X94.307 Y100.575 E.8717
G1 X94.764 Y101.032 E.02331
G1 X94.764 Y75.976 E.90467
G3 X95.272 Y75.649 I.418 J.09 E.02424
G1 X95.272 Y101.359 E.92832
G1 X95.78 Y101.359 E.01834
G1 X95.78 Y75.649 E.92832
G1 X96.288 Y75.649 E.01834
G1 X96.288 Y101.359 E.92832
G1 X96.795 Y101.359 E.01834
G1 X96.795 Y75.649 E.92832
G1 X97.303 Y75.649 E.01834
G1 X97.303 Y101.359 E.92832
G1 X97.811 Y101.359 E.01834
G1 X97.811 Y75.649 E.92832
G1 X98.319 Y75.649 E.01834
G1 X98.319 Y101.359 E.92832
G1 X98.827 Y101.359 E.01834
G1 X98.827 Y75.649 E.92832
G1 X99.335 Y75.649 E.01834
G1 X99.335 Y101.359 E.92832
G1 X99.843 Y101.359 E.01834
G1 X99.843 Y75.649 E.92832
G1 X100.351 Y75.649 E.01834
G1 X100.351 Y101.359 E.92832
G1 X100.858 Y101.359 E.01834
G1 X100.858 Y75.649 E.92832
G1 X101.366 Y75.649 E.01834
G1 X101.366 Y101.359 E.92832
G1 X101.874 Y101.359 E.01834
G1 X101.874 Y75.649 E.92832
G1 X102.382 Y75.649 E.01834
G1 X102.382 Y101.359 E.92832
G1 X102.89 Y101.359 E.01834
G1 X102.89 Y75.649 E.92832
G1 X103.398 Y75.649 E.01834
G1 X103.398 Y101.359 E.92832
G1 X103.906 Y101.359 E.01834
G1 X103.906 Y75.649 E.92832
G1 X104.413 Y75.649 E.01834
G1 X104.413 Y101.359 E.92832
G1 X104.921 Y101.359 E.01834
G1 X104.921 Y75.649 E.92832
G1 X105.429 Y75.649 E.01834
G1 X105.429 Y101.359 E.92832
G1 X105.937 Y101.359 E.01834
G1 X105.937 Y75.649 E.92832
G1 X106.445 Y75.649 E.01834
G1 X106.445 Y101.359 E.92832
G1 X106.953 Y101.359 E.01834
G1 X106.953 Y75.649 E.92832
G1 X107.461 Y75.649 E.01834
G1 X107.461 Y101.359 E.92832
G1 X107.969 Y101.359 E.01834
G1 X107.969 Y75.649 E.92832
G1 X108.476 Y75.649 E.01834
M73 P2 R62
G1 X108.476 Y101.359 E.92832
G1 X108.984 Y101.359 E.01834
G1 X108.984 Y75.649 E.92832
G1 X109.492 Y75.649 E.01834
G1 X109.492 Y101.359 E.92832
G1 X110 Y101.359 E.01834
G1 X110 Y75.649 E.92832
G1 X110.508 Y75.649 E.01834
G1 X110.508 Y101.359 E.92832
G1 X111.016 Y101.359 E.01834
G1 X111.016 Y75.649 E.92832
G1 X111.524 Y75.649 E.01834
G1 X111.524 Y101.359 E.92832
G1 X112.031 Y101.359 E.01834
G1 X112.031 Y75.649 E.92832
G1 X112.539 Y75.649 E.01834
G1 X112.539 Y101.359 E.92832
G1 X113.047 Y101.359 E.01834
G1 X113.047 Y75.649 E.92832
G1 X113.555 Y75.649 E.01834
G1 X113.555 Y101.359 E.92832
G1 X114.063 Y100.857 E.0258
G1 X114.063 Y75.649 E.91017
G1 X114.571 Y75.649 E.01834
G1 X114.571 Y98.522 E.82589
G1 X115.079 Y98.522 E.01834
G1 X115.079 Y75.649 E.82589
G1 X115.587 Y75.649 E.01834
G1 X115.587 Y98.522 E.82589
G1 X116.094 Y98.522 E.01834
G1 X116.094 Y75.649 E.82589
G1 X116.602 Y75.649 E.01834
G1 X116.602 Y98.317 E.81848
G1 X117.11 Y97.809 E.02593
G1 X117.11 Y75.649 E.80014
G1 X117.618 Y75.649 E.01834
G1 X117.618 Y95.685 E.72345
G1 X118.126 Y95.685 E.01834
G1 X118.126 Y75.649 E.72345
G1 X118.634 Y75.649 E.01834
G1 X118.634 Y95.685 E.72345
G1 X119.142 Y95.685 E.01834
M73 P2 R61
G1 X119.142 Y75.649 E.72345
G1 X119.649 Y75.649 E.01834
G1 X119.649 Y95.27 E.70846
G1 X120.018 Y94.901 E.01884
G1 X120.018 Y92.848 E.07412
G1 X120.157 Y92.848 E.00502
G1 X120.157 Y75.649 E.62101
G1 X120.437 Y75.649 E.01009
; stop printing object arm_frame_ver2_fix1.STEP id:0 copy 0
; printing object arm_frame_ver2_fix1.STEP id:4485843572174312500 copy 0
G1 E-.7 F2400
;WIPE_START
G1 F1800
G1 X120.157 Y75.649 E-.0838
G1 X120.157 Y76.369 E-.2162
;WIPE_END
G1 Z.4 F9600
G1 X104.988 Y97.758 Z.4
G1 Z.2
G1 E1 F2400
G1 F1800
G1 X104.988 Y122.242 E.884
G1 X103.963 Y123.267 E.05234
G1 X85.154 Y123.267 E.67913
G1 X84.129 Y122.242 E.05234
G1 X84.129 Y120.43 E.06542
G1 X82.317 Y120.43 E.06542
G1 X81.291 Y119.405 E.05234
G1 X81.291 Y117.593 E.06542
G1 X79.48 Y117.593 E.06542
G1 X78.454 Y116.568 E.05234
G1 X78.454 Y114.756 E.06542
G1 X76.642 Y114.756 E.06542
G1 X75.617 Y113.731 E.05234
G1 X75.617 Y111.919 E.06542
G1 X73.805 Y111.919 E.06542
G1 X72.78 Y110.893 E.05234
G1 X72.78 Y97.758 E.47426
G1 X73.805 Y96.733 E.05234
G1 X103.963 Y96.733 E1.08887
G1 X104.94 Y97.71 E.04987
G1 E-.7 F2400
;WIPE_START
G1 F1800
G1 X104.233 Y97.003 E-.3
;WIPE_END
G1 Z.4 F9600
G1 X84.54 Y121.809 Z.4
G1 Z.2
G1 E1 F2400
G1 F1800
G2 X84.821 Y122.353 I.412 J.131 E.02454
G1 X84.821 Y97.145 E.91017
G1 X85.329 Y97.145 E.01834
G1 X85.329 Y122.855 E.92832
G1 X85.837 Y122.855 E.01834
G1 X85.837 Y97.145 E.92832
G1 X86.345 Y97.145 E.01834
G1 X86.345 Y122.855 E.92832
G1 X86.853 Y122.855 E.01834
G1 X86.853 Y97.145 E.92832
G1 X87.361 Y97.145 E.01834
G1 X87.361 Y122.855 E.92832
G1 X87.868 Y122.855 E.01834
G1 X87.868 Y97.145 E.92832
G1 X88.376 Y97.145 E.01834
G1 X88.376 Y122.855 E.92832
G1 X88.884 Y122.855 E.01834
G1 X88.884 Y97.145 E.92832
G1 X89.392 Y97.145 E.01834
G1 X89.392 Y122.855 E.92832
G1 X89.9 Y122.855 E.01834
G1 X89.9 Y97.145 E.92832
G1 X90.408 Y97.145 E.01834
G1 X90.408 Y122.855 E.92832
G1 X90.916 Y122.855 E.01834
M73 P3 R61
G1 X90.916 Y97.145 E.92832
G1 X91.424 Y97.145 E.01834
G1 X91.424 Y122.855 E.92832
G1 X91.931 Y122.855 E.01834
G1 X91.931 Y97.145 E.92832
G1 X92.439 Y97.145 E.01834
G1 X92.439 Y122.855 E.92832
G1 X92.947 Y122.855 E.01834
G1 X92.947 Y97.145 E.92832
G1 X93.455 Y97.145 E.01834
G1 X93.455 Y122.855 E.92832
G1 X93.963 Y122.855 E.01834
G1 X93.963 Y97.145 E.92832
G1 X94.471 Y97.145 E.01834
G1 X94.471 Y122.855 E.92832
G1 X94.979 Y122.855 E.01834
G1 X94.979 Y97.145 E.92832
G1 X95.486 Y97.145 E.01834
G1 X95.486 Y122.855 E.92832
G1 X95.994 Y122.855 E.01834
G1 X95.994 Y97.145 E.92832
G1 X96.502 Y97.145 E.01834
G1 X96.502 Y122.855 E.92832
G1 X97.01 Y122.855 E.01834
G1 X97.01 Y97.145 E.92832
G1 X97.518 Y97.145 E.01834
G1 X97.518 Y122.855 E.92832
G1 X98.026 Y122.855 E.01834
G1 X98.026 Y97.145 E.92832
G1 X98.534 Y97.145 E.01834
G1 X98.534 Y122.855 E.92832
G1 X99.042 Y122.855 E.01834
G1 X99.042 Y97.145 E.92832
G1 X99.549 Y97.145 E.01834
G1 X99.549 Y122.855 E.92832
G1 X100.057 Y122.855 E.01834
G1 X100.057 Y97.145 E.92832
G1 X100.565 Y97.145 E.01834
G1 X100.565 Y122.855 E.92832
G1 X101.073 Y122.855 E.01834
G1 X101.073 Y97.145 E.92832
G1 X101.581 Y97.145 E.01834
G1 X101.581 Y122.855 E.92832
G1 X102.089 Y122.855 E.01834
G1 X102.089 Y97.145 E.92832
G1 X102.597 Y97.145 E.01834
G1 X102.597 Y122.855 E.92832
G1 X103.104 Y122.855 E.01834
G1 X103.104 Y97.145 E.92832
G1 X103.612 Y97.145 E.01834
G1 X103.612 Y122.855 E.92832
G2 X104.12 Y122.528 I.09 J-.418 E.02424
G1 X104.12 Y97.472 E.90467
G1 X104.577 Y97.929 E.02331
G1 X104.577 Y122.071 E.8717
G1 X104.282 Y122.366 E.01506
G1 E-.7 F2400
;WIPE_START
G1 F1800
G1 X104.577 Y122.071 E-.12515
G1 X104.577 Y121.489 E-.17485
;WIPE_END
G1 Z.4 F9600
G1 X76.188 Y113.719 Z.4
G1 Z.2
G1 E1 F2400
G1 F1800
G1 X76.188 Y97.145 E.59844
G1 X76.695 Y97.145 E.01834
G1 X76.695 Y114.227 E.61677
G2 X77.203 Y114.344 I.313 J-.195 E.0209
G1 X77.203 Y97.145 E.62101
G1 X77.711 Y97.145 E.01834
G1 X77.711 Y114.344 E.62101
G1 X78.219 Y114.344 E.01834
G1 X78.219 Y97.145 E.62101
G1 X78.727 Y97.145 E.01834
G1 X78.727 Y114.344 E.62101
G1 X78.866 Y114.344 E.00502
G1 X78.866 Y116.397 E.07412
G1 X79.235 Y116.766 E.01884
G1 X79.235 Y97.145 E.70846
G1 X79.743 Y97.145 E.01834
G1 X79.743 Y117.181 E.72345
G1 X80.25 Y117.181 E.01834
G1 X80.25 Y97.145 E.72345
G1 X80.758 Y97.145 E.01834
G1 X80.758 Y117.181 E.72345
G1 X81.266 Y117.181 E.01834
G1 X81.266 Y97.145 E.72345
G1 X81.774 Y97.145 E.01834
G1 X81.774 Y119.305 E.80014
G1 X82.282 Y119.813 E.02593
G1 X82.282 Y97.145 E.81848
G1 X82.79 Y97.145 E.01834
G1 X82.79 Y120.018 E.82589
G1 X83.298 Y120.018 E.01834
G1 X83.298 Y97.145 E.82589
G1 X83.806 Y97.145 E.01834
G1 X83.806 Y120.018 E.82589
G1 X84.313 Y120.018 E.01834
M73 P4 R61
G1 X84.313 Y97.145 E.82589
G1 X84.593 Y97.145 E.01009
G1 E-.7 F2400
;WIPE_START
G1 F1800
G1 X84.313 Y97.145 E-.0838
G1 X84.313 Y97.865 E-.2162
;WIPE_END
G1 Z.4 F9600
G1 X73.487 Y97.634 Z.4
G1 Z.2
G1 E1 F2400
G1 F1800
G1 X73.192 Y97.929 E.01506
G1 X73.192 Y110.723 E.46195
G1 X73.648 Y111.18 E.02331
G1 X73.648 Y97.472 E.49492
G3 X74.156 Y97.145 I.418 J.09 E.02424
M73 P4 R60
G1 X74.156 Y111.507 E.51858
G1 X74.664 Y111.507 E.01834
G1 X74.664 Y97.145 E.51858
G1 X75.172 Y97.145 E.01834
G1 X75.172 Y111.507 E.51858
G1 X75.68 Y111.507 E.01834
G1 X75.68 Y97.145 E.51858
G1 X75.959 Y97.145 E.01009
; stop printing object arm_frame_ver2_fix1.STEP id:4485843572174312500 copy 0
; printing object arm_frame_ver2_fix2.STEP id:1059047489 copy 0
G1 E-.7 F2400
;WIPE_START
G1 F1800
G1 X75.68 Y97.145 E-.0838
G1 X75.68 Y97.865 E-.2162
;WIPE_END
G1 Z.4 F9600
G1 X126.104 Y94.921 Z.4
G1 Z.2
G1 E1 F2400
G1 F1800
G1 X126.104 Y125.079 E1.08887
G1 X125.079 Y126.104 E.05234
G1 X94.921 Y126.104 E1.08887
G1 X93.896 Y125.079 E.05234
G1 X93.896 Y106.27 E.67913
G1 X94.921 Y105.244 E.05234
G1 X96.733 Y105.244 E.06542
G1 X96.733 Y103.432 E.06542
G1 X97.758 Y102.407 E.05234
G1 X99.57 Y102.407 E.06542
G1 X99.57 Y100.595 E.06542
G1 X100.595 Y99.57 E.05234
G1 X102.407 Y99.57 E.06542
G1 X102.407 Y97.758 E.06542
G1 X103.432 Y96.733 E.05234
G1 X105.244 Y96.733 E.06542
G1 X105.244 Y94.921 E.06542
G1 X106.27 Y93.896 E.05234
G1 X125.079 Y93.896 E.67913
G1 X126.055 Y94.873 E.04987
G1 E-.7 F2400
;WIPE_START
G1 F1800
G1 X125.348 Y94.166 E-.3
;WIPE_END
G1 Z.4 F9600
G1 X125.398 Y125.203 Z.4
G1 Z.2
G1 E1 F2400
G1 F1800
G1 X125.693 Y124.908 E.01506
G1 X125.693 Y95.092 E1.07657
G1 X125.236 Y94.635 E.02331
G1 X125.236 Y125.365 E1.10954
G3 X124.728 Y125.693 I-.418 J-.09 E.02424
G1 X124.728 Y94.307 E1.13319
G1 X124.22 Y94.307 E.01834
G1 X124.22 Y125.693 E1.13319
G1 X123.712 Y125.693 E.01834
G1 X123.712 Y94.307 E1.13319
G1 X123.205 Y94.307 E.01834
G1 X123.205 Y125.693 E1.13319
G1 X122.697 Y125.693 E.01834
G1 X122.697 Y94.307 E1.13319
G1 X122.189 Y94.307 E.01834
G1 X122.189 Y125.693 E1.13319
G1 X121.681 Y125.693 E.01834
G1 X121.681 Y94.307 E1.13319
G1 X121.173 Y94.307 E.01834
G1 X121.173 Y125.693 E1.13319
G1 X120.665 Y125.693 E.01834
G1 X120.665 Y94.307 E1.13319
G1 X120.157 Y94.307 E.01834
G1 X120.157 Y125.693 E1.13319
G1 X119.649 Y125.693 E.01834
G1 X119.649 Y94.307 E1.13319
G1 X119.142 Y94.307 E.01834
G1 X119.142 Y125.693 E1.13319
G1 X118.634 Y125.693 E.01834
G1 X118.634 Y94.307 E1.13319
G1 X118.126 Y94.307 E.01834
G1 X118.126 Y125.693 E1.13319
G1 X117.618 Y125.693 E.01834
G1 X117.618 Y94.307 E1.13319
G1 X117.11 Y94.307 E.01834
G1 X117.11 Y125.693 E1.13319
G1 X116.602 Y125.693 E.01834
G1 X116.602 Y94.307 E1.13319
G1 X116.094 Y94.307 E.01834
G1 X116.094 Y125.693 E1.13319
G1 X115.587 Y125.693 E.01834
G1 X115.587 Y94.307 E1.13319
G1 X115.079 Y94.307 E.01834
G1 X115.079 Y125.693 E1.13319
G1 X114.571 Y125.693 E.01834
G1 X114.571 Y94.307 E1.13319
G1 X114.063 Y94.307 E.01834
G1 X114.063 Y125.693 E1.13319
G1 X113.555 Y125.693 E.01834
G1 X113.555 Y94.307 E1.13319
M73 P5 R60
G1 X113.047 Y94.307 E.01834
G1 X113.047 Y125.693 E1.13319
G1 X112.539 Y125.693 E.01834
G1 X112.539 Y94.307 E1.13319
G1 X112.031 Y94.307 E.01834
G1 X112.031 Y125.693 E1.13319
G1 X111.524 Y125.693 E.01834
G1 X111.524 Y94.307 E1.13319
G1 X111.016 Y94.307 E.01834
G1 X111.016 Y125.693 E1.13319
G1 X110.508 Y125.693 E.01834
G1 X110.508 Y94.307 E1.13319
G1 X110 Y94.307 E.01834
G1 X110 Y125.693 E1.13319
G1 X109.492 Y125.693 E.01834
G1 X109.492 Y94.307 E1.13319
G1 X108.984 Y94.307 E.01834
G1 X108.984 Y125.693 E1.13319
G1 X108.476 Y125.693 E.01834
G1 X108.476 Y94.307 E1.13319
G1 X107.969 Y94.307 E.01834
G1 X107.969 Y125.693 E1.13319
G1 X107.461 Y125.693 E.01834
G1 X107.461 Y94.307 E1.13319
G1 X106.953 Y94.307 E.01834
G1 X106.953 Y125.693 E1.13319
G1 X106.445 Y125.693 E.01834
G1 X106.445 Y94.307 E1.13319
G1 X105.937 Y94.81 E.0258
G1 X105.937 Y125.693 E1.11504
G1 X105.429 Y125.693 E.01834
G1 X105.429 Y97.145 E1.03076
G1 X104.921 Y97.145 E.01834
G1 X104.921 Y125.693 E1.03076
G1 X104.413 Y125.693 E.01834
G1 X104.413 Y97.145 E1.03076
G1 X103.906 Y97.145 E.01834
G1 X103.906 Y125.693 E1.03076
G1 X103.398 Y125.693 E.01834
G1 X103.398 Y97.35 E1.02335
G1 X102.89 Y97.857 E.02593
G1 X102.89 Y125.693 E1.00502
G1 X102.382 Y125.693 E.01834
G1 X102.382 Y99.982 E.92832
G1 X101.874 Y99.982 E.01834
