; HEADER_BLOCK_START
; generated by Creality_Print V5.1.6.10470 on 2024-12-27 at 11:50:57
; total layer number: 863
; filament_density: 1.24
; filament_diameter: 1.75
; max_z_height: 126.30
; HEADER_BLOCK_END

; MINX = 81.07
; MINY = 80.68
; MINZ = 0.00
; MAXX = 138.88
; MAXY = 138.49
; MAXZ = 125.00

; THUMBNAIL_BLOCK_START

;
; THUMBNAIL_BLOCK_END

; external perimeters extrusion width = 0.42mm
; perimeters extrusion width = 0.45mm
; infill extrusion width = 0.45mm
; solid infill extrusion width = 0.45mm
; top infill extrusion width = 0.42mm
; support material extrusion width = 0.38mm
; first layer extrusion width = 0.50mm

; EXECUTABLE_BLOCK_START
M73 P0 R279
M201 X500 Y500 Z100 E5000
M203 X500 Y500 Z10 E60
M204 P500 R1000 T500
M205 X8.00 Y8.00 Z0.40 E5.00 ; sets the jerk limits, mm/sec
;TYPE:Custom
G90 ; use absolute coordinates
M83 ; extruder relative mode
M104 S150 ; set temporary nozzle temp to prevent oozing during homing
M140 S60 ; set final bed temp
G4 S30 ; allow partial nozzle warmup
G28 ; home all axis and restore leveling
G1 Z50 F240
G1 X2.0 Y10 F3000
M104 S220 ; set final nozzle temp
M190 S60 ; wait for bed temp to stabilize
M109 S220 ; wait for nozzle temp to stabilize
G1 Z0.28 F240
G92 E0
G1 X2.0 Y140 E10 F1500 ; prime the nozzle
G1 X2.3 Y140 F5000
G92 E0
G1 X2.3 Y10 E10 F1200 ; prime the nozzle
G92 E0
G90
G21
M83 ; use relative distances for extrusion
; filament start gcode
M106 S0
;LAYER_CHANGE
;Z:0.2
;HEIGHT:0.2
;BEFORE_LAYER_CHANGE
;0.2
G92 E0

G1 E-1 F2400
;_SET_FAN_SPEED_CHANGING_LAYER
M204 S500
M205 X8 Y8
; printing object waist_to_mobile_ver2_2.STEP id:0 copy 0
G1 Z.2 F9600
G1 X143.099 Y77.487
G1 Z.2
M73 P0 R278
G1 E1 F2400
;TYPE:Support
;WIDTH:0.5
G1 F1800
G1 X143.099 Y90.622 E.47426
G1 X142.074 Y91.647 E.05234
G1 X140.262 Y91.647 E.06542
G1 X140.262 Y99.134 E.27029
G1 X139.237 Y100.159 E.05234
G1 X137.425 Y100.159 E.06542
G1 X137.425 Y104.808 E.16786
G1 X136.399 Y105.833 E.05234
G1 X134.587 Y105.833 E.06542
G1 X134.587 Y107.645 E.06542
G1 X133.562 Y108.67 E.05234
G1 X131.75 Y108.67 E.06542
G1 X131.75 Y113.319 E.16786
G1 X130.725 Y114.344 E.05234
G1 X128.913 Y114.344 E.06542
G1 X128.913 Y116.156 E.06542
G1 X127.888 Y117.181 E.05234
G1 X126.076 Y117.181 E.06542
G1 X126.076 Y118.993 E.06542
G1 X125.051 Y120.018 E.05234
G1 X123.239 Y120.018 E.06542
G1 X123.239 Y121.83 E.06542
G1 X122.214 Y122.855 E.05234
G1 X120.402 Y122.855 E.06542
G1 X120.402 Y124.667 E.06542
G1 X119.377 Y125.692 E.05234
G1 X117.565 Y125.692 E.06542
G1 X117.565 Y127.504 E.06542
G1 X116.54 Y128.53 E.05234
G1 X114.728 Y128.53 E.06542
G1 X114.728 Y130.341 E.06542
G1 X113.703 Y131.367 E.05234
G1 X109.054 Y131.367 E.16786
G1 X109.054 Y133.179 E.06542
G1 X108.029 Y134.204 E.05234
G1 X106.217 Y134.204 E.06542
G1 X106.217 Y136.016 E.06542
G1 X105.192 Y137.041 E.05234
G1 X100.543 Y137.041 E.16786
G1 X100.543 Y138.853 E.06542
G1 X99.517 Y139.878 E.05234
G1 X92.031 Y139.878 E.27029
G1 X92.031 Y141.69 E.06542
G1 X91.006 Y142.715 E.05234
G1 X77.871 Y142.715 E.47426
G1 X76.846 Y141.69 E.05234
G1 X76.846 Y128.555 E.47426
G1 X77.871 Y127.529 E.05234
G1 X85.357 Y127.529 E.27029
G1 X85.357 Y125.718 E.06542
G1 X86.382 Y124.692 E.05234
G1 X91.031 Y124.692 E.16786
G1 X91.031 Y122.88 E.06542
G1 X92.056 Y121.855 E.05234
G1 X93.868 Y121.855 E.06542
G1 X93.868 Y120.043 E.06542
G1 X94.893 Y119.018 E.05234
G1 X96.705 Y119.018 E.06542
G1 X96.705 Y117.206 E.06542
G1 X97.731 Y116.181 E.05234
G1 X99.543 Y116.181 E.06542
G1 X99.543 Y114.369 E.06542
G1 X100.568 Y113.344 E.05234
G1 X102.38 Y113.344 E.06542
G1 X102.38 Y111.532 E.06542
G1 X103.405 Y110.507 E.05234
G1 X105.217 Y110.507 E.06542
G1 X105.217 Y108.695 E.06542
G1 X106.242 Y107.67 E.05234
G1 X108.054 Y107.67 E.06542
G1 X108.054 Y105.858 E.06542
G1 X109.079 Y104.833 E.05234
G1 X110.891 Y104.833 E.06542
G1 X110.891 Y103.021 E.06542
G1 X111.916 Y101.996 E.05234
G1 X113.728 Y101.996 E.06542
G1 X113.728 Y100.184 E.06542
G1 X114.753 Y99.159 E.05234
G1 X116.565 Y99.159 E.06542
G1 X116.565 Y97.347 E.06542
G1 X117.59 Y96.322 E.05234
G1 X119.402 Y96.322 E.06542
G1 X119.402 Y94.51 E.06542
G1 X120.427 Y93.485 E.05234
G1 X122.239 Y93.485 E.06542
G1 X122.239 Y91.673 E.06542
G1 X123.264 Y90.647 E.05234
G1 X125.076 Y90.647 E.06542
G1 X125.076 Y85.998 E.16786
G1 X126.101 Y84.973 E.05234
G1 X127.913 Y84.973 E.06542
G1 X127.913 Y77.487 E.27029
G1 X128.938 Y76.462 E.05234
G1 X142.074 Y76.462 E.47426
G1 X143.05 Y77.439 E.04987
G1 E-.7 F2400
;WIPE_START
G1 F1800
G1 X142.343 Y76.732 E-.3
;WIPE_END
G1 Z.4 F9600
G1 X140.165 Y91.236 Z.4
G1 Z.2
G1 E1 F2400
G1 F1800
G1 X140.444 Y91.236 E.01009
G1 X140.444 Y76.873 E.51858
G1 X140.952 Y76.873 E.01834
G1 X140.952 Y91.236 E.51858
G1 X141.46 Y91.236 E.01834
G1 X141.46 Y76.873 E.51858
G1 X141.968 Y76.938 E.01849
G1 X141.968 Y91.171 E.51391
G1 X142.476 Y90.664 E.02593
G1 X142.476 Y77.446 E.47724
G1 E-.7 F2400
;WIPE_START
G1 F1800
G1 X142.476 Y78.446 E-.3
;WIPE_END
G1 Z.4 F9600
G1 X131.811 Y108.259 Z.4
G1 Z.2
G1 E1 F2400
G1 F1800
G1 X131.811 Y76.873 E1.13319
G1 X132.318 Y76.873 E.01834
G1 X132.318 Y108.259 E1.13319
G1 X132.826 Y108.259 E.01834
G1 X132.826 Y76.873 E1.13319
G1 X133.334 Y76.873 E.01834
G1 X133.334 Y108.259 E1.13319
G1 X133.842 Y107.809 E.0245
G1 X133.842 Y76.873 E1.11694
G1 X134.35 Y76.873 E.01834
G1 X134.35 Y105.421 E1.03076
G1 X134.858 Y105.421 E.01834
G1 X134.858 Y76.873 E1.03076
G1 X135.366 Y76.873 E.01834
G1 X135.366 Y105.421 E1.03076
G1 X135.873 Y105.421 E.01834
G1 X135.873 Y76.873 E1.03076
G1 X136.381 Y76.873 E.01834
G1 X136.381 Y105.269 E1.02526
G1 X136.889 Y104.761 E.02593
G1 X136.889 Y76.873 E1.00692
G1 X137.397 Y76.873 E.01834
G1 X137.397 Y99.747 E.82589
G1 X137.905 Y99.747 E.01834
G1 X137.905 Y76.873 E.82589
G1 X138.413 Y76.873 E.01834
G1 X138.413 Y99.747 E.82589
G1 X138.921 Y99.747 E.01834
G1 X138.921 Y76.873 E.82589
G1 X139.429 Y76.873 E.01834
G1 X139.429 Y99.385 E.8128
G1 X139.85 Y98.963 E.02154
G1 X139.936 Y76.873 E.79758
G1 X140.216 Y76.873 E.01009
G1 E-.7 F2400
;WIPE_START
G1 F1800
G1 X139.936 Y76.873 E-.0838
G1 X139.934 Y77.594 E-.2162
;WIPE_END
G1 Z.4 F9600
G1 X125.945 Y116.77 Z.4
G1 Z.2
G1 E1 F2400
G1 F1800
G1 X126.224 Y116.77 E.01009
G1 X126.272 Y85.385 E1.13319
G1 X126.732 Y85.385 E.01661
G1 X126.732 Y116.77 E1.13319
G1 X127.24 Y116.77 E.01834
G1 X127.24 Y85.385 E1.13319
G1 X127.748 Y85.385 E.01834
G1 X127.748 Y116.74 E1.13212
G1 X128.255 Y116.232 E.02593
G1 X128.325 Y77.658 E1.39278
G1 X128.763 Y77.219 E.0224
G1 X128.763 Y113.933 E1.32559
G1 X129.271 Y113.933 E.01834
G1 X129.271 Y76.873 E1.33806
G1 X129.779 Y76.873 E.01834
G1 X129.779 Y113.933 E1.33806
G1 X130.287 Y113.933 E.01834
G1 X130.287 Y76.873 E1.33806
G1 X130.795 Y76.873 E.01834
G1 X130.795 Y113.693 E1.3294
G1 X131.303 Y113.185 E.02593
G1 X131.303 Y76.873 E1.31106
G1 X131.582 Y76.873 E.01009
G1 E-.7 F2400
;WIPE_START
G1 F1800
G1 X131.303 Y76.873 E-.0838
G1 X131.303 Y77.594 E-.2162
;WIPE_END
G1 Z.4 F9600
G1 X120.358 Y122.444 Z.4
G1 Z.2
G1 E1 F2400
G1 F1800
G1 X120.637 Y122.444 E.01009
G1 X120.637 Y93.896 E1.03076
G1 X121.145 Y93.896 E.01834
G1 X121.145 Y122.444 E1.03076
G1 X121.653 Y122.444 E.01834
G1 X121.653 Y93.896 E1.03076
G1 X122.161 Y93.896 E.01834
G1 X122.161 Y122.327 E1.02652
G1 X122.669 Y121.819 E.02593
G1 X122.669 Y91.825 E1.08297
G1 X123.177 Y91.317 E.02593
G1 X123.177 Y119.607 E1.02145
G1 X123.685 Y119.607 E.01834
G1 X123.685 Y91.059 E1.03076
G1 X124.193 Y91.059 E.01834
G1 X124.193 Y119.607 E1.03076
G1 X124.7 Y119.607 E.01834
G1 X124.7 Y91.059 E1.03076
G1 X125.208 Y91.059 E.01834
G1 X125.208 Y119.279 E1.01893
G1 X125.665 Y118.823 E.02331
G1 X125.716 Y85.94 E1.18726
G1 X126.062 Y85.594 E.01768
G1 E-.7 F2400
;WIPE_START
G1 F1800
G1 X125.716 Y85.94 E-.14691
G1 X125.715 Y86.451 E-.15309
;WIPE_END
G1 Z.4 F9600
G1 X120.464 Y94.029 Z.4
G1 Z.2
G1 E1 F2400
G1 F1800
G1 X120.13 Y94.364 E.01708
G1 X120.13 Y122.444 E1.01386
G1 X119.991 Y122.444 E.00502
M73 P0 R277
G1 X119.991 Y124.497 E.07412
G1 X119.622 Y124.866 E.01884
G1 X119.622 Y96.733 E1.01577
G1 X119.114 Y96.733 E.01834
G1 X119.114 Y125.281 E1.03076
G1 X118.606 Y125.281 E.01834
G1 X118.606 Y96.733 E1.03076
G1 X118.098 Y96.733 E.01834
G1 X118.098 Y125.281 E1.03076
G1 X117.59 Y125.281 E.01834
G1 X117.59 Y96.903 E1.02461
G1 X117.082 Y97.411 E.02593
G1 X117.082 Y127.405 E1.08297
G1 X116.575 Y127.913 E.02593
G1 X116.575 Y99.57 E1.02335
G1 X116.067 Y99.57 E.01834
G1 X116.067 Y128.118 E1.03076
G1 X115.559 Y128.118 E.01834
G1 X115.559 Y99.57 E1.03076
G1 X115.051 Y99.57 E.01834
G1 X115.051 Y128.118 E1.03076
G1 X114.543 Y128.118 E.01834
G1 X114.543 Y99.95 E1.01702
G1 X114.139 Y100.354 E.02062
G1 X114.139 Y102.407 E.07412
G1 X114.035 Y102.407 E.00376
G1 X114.035 Y130.452 E1.0126
G1 X113.532 Y130.955 E.02567
G1 X113.527 Y102.407 E1.03076
G1 X113.019 Y102.407 E.01834
G1 X113.019 Y130.955 E1.03076
G1 X112.512 Y130.955 E.01834
G1 X112.512 Y102.407 E1.03076
G1 X112.004 Y102.49 E.01858
G1 X112.004 Y130.955 E1.02777
G1 X111.496 Y130.955 E.01834
G1 X111.496 Y102.998 E1.00944
G1 E-.7 F2400
;WIPE_START
G1 F1800
G1 X111.496 Y103.998 E-.3
;WIPE_END
G1 Z.4 F9600
G1 X108.957 Y130.955 Z.4
G1 Z.2
G1 E1 F2400
G1 F1800
G1 X108.957 Y105.537 E.91775
G3 X109.464 Y105.244 I.4 J.108 E.02351
G1 X109.464 Y130.955 E.92832
G1 X109.972 Y130.955 E.01834
G1 X109.972 Y105.244 E.92832
G1 X110.48 Y105.244 E.01834
G1 X110.48 Y130.955 E.92832
G1 X110.988 Y130.955 E.01834
G1 X110.988 Y105.244 E.92832
G1 E-.7 F2400
;WIPE_START
G1 F1800
G1 X110.988 Y106.244 E-.3
;WIPE_END
G1 Z.4 F9600
G1 X106.138 Y133.792 Z.4
G1 Z.2
G1 E1 F2400
G1 F1800
G1 X106.417 Y133.792 E.01009
G1 X106.417 Y108.081 E.92832
G1 X106.925 Y108.081 E.01834
G1 X106.925 Y133.792 E.92832
G1 X107.433 Y133.792 E.01834
G1 X107.433 Y108.081 E.92832
G1 X107.941 Y108.081 E.01834
G1 X107.941 Y133.71 E.92534
G1 X108.449 Y133.202 E.02593
G1 X108.465 Y106.028 E.98113
G1 X108.957 Y105.537 E.02509
G1 E-.7 F2400
;WIPE_START
G1 F1800
G1 X108.465 Y106.028 E-.2085
G1 X108.465 Y106.333 E-.0915
;WIPE_END
G1 Z.4 F9600
G1 X106.254 Y108.239 Z.4
G1 Z.2
G1 E1 F2400
G1 F1800
G1 X105.909 Y108.584 E.01761
G1 X105.805 Y135.845 E.9843
G1 X105.402 Y136.249 E.02062
G1 X105.402 Y110.918 E.91459
G1 X104.894 Y110.918 E.01834
G1 X104.894 Y136.629 E.92832
G1 X104.386 Y136.629 E.01834
G1 X104.386 Y110.918 E.92832
G1 X103.878 Y110.918 E.01834
G1 X103.878 Y136.629 E.92832
G1 X103.37 Y136.629 E.01834
G1 X103.37 Y111.123 E.92092
G1 X102.862 Y111.631 E.02593
G1 X102.862 Y136.629 E.90258
G1 X102.354 Y136.629 E.01834
G1 X102.354 Y113.755 E.82589
G1 X101.846 Y113.755 E.01834
G1 X101.846 Y136.629 E.82589
G1 X101.339 Y136.629 E.01834
G1 X101.339 Y113.755 E.82589
G1 X100.831 Y113.755 E.01834
G1 X100.831 Y136.629 E.82589
G1 X100.323 Y136.629 E.01834
G1 X100.323 Y114.171 E.81089
G1 X99.954 Y114.54 E.01884
G1 X99.954 Y116.593 E.07412
G1 X99.815 Y116.593 E.00502
G1 X99.815 Y138.998 E.80899
G1 X99.347 Y139.466 E.02389
G1 X99.307 Y116.593 E.82589
G1 X98.799 Y116.593 E.01834
G1 X98.799 Y139.466 E.82589
G1 X98.291 Y139.466 E.01834
G1 X98.291 Y116.593 E.82589
G2 X97.784 Y116.71 I-.195 J.313 E.0209
G1 X97.784 Y139.466 E.82164
G1 X97.276 Y139.466 E.01834
G1 X97.276 Y117.218 E.80331
G1 E-.7 F2400
;WIPE_START
G1 F1800
G1 X97.276 Y118.218 E-.3
;WIPE_END
G1 Z.4 F9600
G1 X96.768 Y119.43 Z.4
G1 Z.2
G1 E1 F2400
G1 F1800
G1 X96.768 Y139.466 E.72345
G1 X96.26 Y139.466 E.01834
G1 X96.26 Y119.43 E.72345
G1 X95.752 Y119.43 E.01834
G1 X95.752 Y139.466 E.72345
G1 X95.244 Y139.466 E.01834
G1 X95.244 Y119.43 E.72345
G2 X94.736 Y119.757 I-.09 J.418 E.02424
G1 X94.736 Y139.466 E.71162
G1 X94.228 Y139.466 E.01834
G1 X94.28 Y120.214 E.69514
G1 E-.7 F2400
;WIPE_START
G1 F1800
G1 X94.277 Y121.214 E-.3
;WIPE_END
G1 Z.4 F9600
G1 X94 Y122.267 Z.4
G1 Z.2
G1 E1 F2400
G1 F1800
G1 X93.721 Y122.267 E.01009
G1 X93.721 Y139.466 E.62101
G1 X93.213 Y139.466 E.01834
G1 X93.213 Y122.267 E.62101
G1 X92.705 Y122.267 E.01834
G1 X92.705 Y139.466 E.62101
G1 X92.197 Y139.466 E.01834
G1 X92.197 Y122.297 E.61994
G1 X91.689 Y122.804 E.02593
G1 X91.689 Y139.466 E.6016
G1 X91.62 Y141.519 E.07417
G1 X91.181 Y141.958 E.0224
G1 X91.181 Y125.104 E.60854
G1 X90.673 Y125.104 E.01834
G1 X90.673 Y142.304 E.62101
G1 X90.166 Y142.304 E.01834
G1 X90.166 Y125.104 E.62101
G1 X89.658 Y125.104 E.01834
G1 X89.658 Y142.304 E.62101
G1 X89.15 Y142.304 E.01834
G1 X89.15 Y125.104 E.62101
G1 X88.642 Y125.104 E.01834
G1 X88.642 Y142.304 E.62101
G1 X88.134 Y142.304 E.01834
G1 X88.134 Y125.104 E.62101
G1 X87.626 Y125.104 E.01834
G1 X87.626 Y142.304 E.62101
G1 X87.118 Y142.304 E.01834
G1 X87.118 Y125.104 E.62101
G1 X86.61 Y125.104 E.01834
G1 X86.61 Y142.304 E.62101
G1 X86.103 Y142.304 E.01834
G1 X86.103 Y125.554 E.60476
G2 X85.768 Y126.182 I.147 J.481 E.02854
M73 P0 R276
G1 E-.7 F2400
;WIPE_START
G1 F1800
G1 X85.768 Y125.888 E-.0883
G1 X86.103 Y125.554 E-.14175
G1 X86.103 Y125.787 E-.06996
;WIPE_END
G1 Z.4 F9600
G1 X77.469 Y141.731 Z.4
G1 Z.2
G1 E1 F2400
G1 F1800
G1 X77.469 Y128.513 E.47723
G1 X77.977 Y128.006 E.02593
G1 X77.977 Y142.239 E.51391
G1 X78.485 Y142.304 E.01849
G1 X78.485 Y127.941 E.51858
G1 X78.992 Y127.941 E.01834
G1 X78.992 Y142.304 E.51858
G1 X79.5 Y142.304 E.01834
G1 X79.5 Y127.941 E.51858
G1 X80.008 Y127.941 E.01834
G1 X80.008 Y142.304 E.51858
G1 X80.516 Y142.304 E.01834
G1 X80.516 Y127.941 E.51858
G1 X81.024 Y127.941 E.01834
G1 X81.024 Y142.304 E.51858
G1 X81.532 Y142.304 E.01834
G1 X81.532 Y127.941 E.51858
G1 X82.04 Y127.941 E.01834
G1 X82.04 Y142.304 E.51858
G1 X82.548 Y142.304 E.01834
G1 X82.548 Y127.941 E.51858
G1 X83.055 Y127.941 E.01834
G1 X83.055 Y142.304 E.51858
G1 X83.563 Y142.304 E.01834
G1 X83.563 Y127.941 E.51858
G1 X84.071 Y127.941 E.01834
G1 X84.071 Y142.304 E.51858
G1 X84.579 Y142.304 E.01834
G1 X84.579 Y127.941 E.51858
G1 X85.087 Y127.941 E.01834
G1 X85.087 Y142.304 E.51858
G1 X85.595 Y142.304 E.01834
M73 P1 R276
G1 X85.595 Y127.941 E.51858
; stop printing object waist_to_mobile_ver2_2.STEP id:0 copy 0
G1 E-.7 F2400
;WIPE_START
G1 F1800
G1 X85.595 Y128.941 E-.3
;WIPE_END
;TIME_ELAPSED:168.825851

M106 S255
;LAYER_CHANGE
;Z:0.5
;HEIGHT:0.3
;BEFORE_LAYER_CHANGE
;0.5
G92 E0

;_SET_FAN_SPEED_CHANGING_LAYER
; printing object waist_to_mobile_ver2_2.STEP id:0 copy 0
M204 S2500
G1 Z.5 F12000
G1 X78.264 Y140.965
G1 E1 F2400
M204 S500
;WIDTH:0.38
G1 F3000
G2 X78.459 Y141.296 I.263 J.069 E.01596
G1 X90.419 Y141.296 E.44727
G2 X90.613 Y140.796 I-.153 J-.347 E.02228
G1 X78.264 Y140.796 E.4618
G1 X78.264 Y137.959 E.1061
G1 X99.124 Y137.959 E.7801
G1 X99.124 Y135.622 E.0874
G1 X104.604 Y135.622 E.20494
G2 X104.798 Y135.122 I-.153 J-.347 E.02228
G1 X78.264 Y135.122 E.9923
G1 X78.264 Y132.285 E.1061
G1 X107.635 Y132.285 E1.09839
G1 X107.635 Y129.948 E.0874
G1 X113.115 Y129.948 E.20494
G2 X113.309 Y129.448 I-.153 J-.347 E.02228
G1 X78.264 Y129.448 E1.31059
G3 X78.459 Y128.948 I.347 J-.153 E.02228
G1 X86.776 Y128.948 E.31104
G1 X86.776 Y126.611 E.0874
G1 X116.146 Y126.611 E1.09839
G1 X116.146 Y124.274 E.0874
G1 X118.789 Y124.274 E.09884
G2 X118.984 Y123.774 I-.153 J-.347 E.02228
G1 X92.45 Y123.774 E.9923
G3 X92.644 Y123.274 I.347 J-.153 E.02228
G1 X95.287 Y123.274 E.09884
G1 X95.287 Y120.937 E.0874
G1 X121.821 Y120.937 E.9923
G1 X121.821 Y118.6 E.0874
G1 X124.464 Y118.6 E.09884
G2 X124.658 Y118.1 I-.153 J-.347 E.02228
G1 X98.124 Y118.1 E.9923
G3 X98.318 Y117.6 I.347 J-.153 E.02228
G1 X100.961 Y117.6 E.09884
G1 X100.961 Y115.263 E.0874
G1 X127.495 Y115.263 E.9923
G1 X127.495 Y112.926 E.0874
G1 X130.138 Y112.926 E.09884
G2 X130.332 Y112.426 I-.153 J-.347 E.02228
G1 X103.798 Y112.426 E.9923
G3 X103.992 Y111.926 I.347 J-.153 E.02228
G1 X106.635 Y111.926 E.09884
G1 X106.635 Y109.588 E.0874
G1 X130.332 Y109.588 E.8862
G1 X130.332 Y107.251 E.0874
G1 X132.975 Y107.251 E.09884
G2 X133.169 Y106.751 I-.153 J-.347 E.02228
G1 X109.472 Y106.751 E.8862
G3 X109.666 Y106.251 I.347 J-.153 E.02228
G1 X112.309 Y106.251 E.09884
G1 X112.309 Y103.914 E.0874
G1 X136.006 Y103.914 E.8862
G1 X136.006 Y101.077 E.1061
G1 X115.146 Y101.077 E.7801
G3 X115.341 Y100.577 I.347 J-.153 E.02228
G1 X117.984 Y100.577 E.09884
G1 X117.984 Y98.24 E.0874
G1 X138.843 Y98.24 E.7801
G1 X138.843 Y95.403 E.1061
G1 X120.821 Y95.403 E.674
