; HEADER_BLOCK_START
; generated by Creality_Print V5.1.6.10470 on 2024-12-16 at 14:39:44
; total layer number: 160
; filament_density: 1.24
; filament_diameter: 1.75
; max_z_height: 32.00
; HEADER_BLOCK_END

; MINX = 30.00
; MINY = 30.00
; MINZ = 0.00
; MAXX = 190.00
; MAXY = 190.00
; MAXZ = 32.00

; THUMBNAIL_BLOCK_START

;
; THUMBNAIL_BLOCK_END

; external perimeters extrusion width = 0.42mm
; perimeters extrusion width = 0.45mm
; infill extrusion width = 0.45mm
; solid infill extrusion width = 0.45mm
; top infill extrusion width = 0.42mm
; first layer extrusion width = 0.50mm

; EXECUTABLE_BLOCK_START
M73 P0 R301
M201 X500 Y500 Z100 E5000
M203 X500 Y500 Z10 E60
M204 P500 R1000 T500
M205 X8.00 Y8.00 Z0.40 E5.00 ; sets the jerk limits, mm/sec
;TYPE:Custom
G90 ; use absolute coordinates
M83 ; extruder relative mode
M104 S150 ; set temporary nozzle temp to prevent oozing during homing
M140 S60 ; set final bed temp
G4 S30 ; allow partial nozzle warmup
G28 ; home all axis and restore leveling
G1 Z50 F240
G1 X2.0 Y10 F3000
M104 S220 ; set final nozzle temp
M190 S60 ; wait for bed temp to stabilize
M109 S220 ; wait for nozzle temp to stabilize
G1 Z0.28 F240
G92 E0
G1 X2.0 Y140 E10 F1500 ; prime the nozzle
M73 P0 R300
G1 X2.3 Y140 F5000
G92 E0
G1 X2.3 Y10 E10 F1200 ; prime the nozzle
G92 E0
G90
G21
M83 ; use relative distances for extrusion
; filament start gcode
M106 S0
;LAYER_CHANGE
;Z:0.2
;HEIGHT:0.2
;BEFORE_LAYER_CHANGE
;0.2
G92 E0

G1 E-1 F2400
;_SET_FAN_SPEED_CHANGING_LAYER
M204 S500
M205 X8 Y8
; printing object waist_frame_ver2_copy2.STEP id:4623368690249761305 copy 0
G1 Z.2 F9600
G1 X109.473 Y188.372
G1 Z.2
G1 E1 F2400
;TYPE:Inner wall
;WIDTH:0.499999
G1 F1800
G1 X108.686 Y188.362 E.02842
G3 X126.959 Y33.478 I1.315 J-78.365 E9.45992
G1 X127.534 Y33.59 E.02115
;WIDTH:0.456689
G1 X128.109 Y33.702 E.01914
;WIDTH:0.46043
G1 X128.666 Y33.856 E.01905
;WIDTH:0.499999
G3 X132.879 Y35.035 I-88.576 J324.701 E.15795
G3 X188.374 Y109.378 I-22.92 J74.994 E3.58418
G3 X110.442 Y188.372 I-78.373 J.619 E4.45148
G1 X109.513 Y188.372 E.03356
G1 X109.797 Y188.831 F9600
G1 F1800
G1 X108.678 Y188.813 E.04041
G3 X185.777 Y88.254 I1.321 J-78.822 E12.57031
G3 X188.831 Y109.378 I-75.711 J21.727 E.77301
G3 X110.444 Y188.823 I-78.831 J.613 E4.47714
G1 X109.837 Y188.83 E.02189
G1 X109.945 Y189.289 F9600
G1 F1800
G1 X108.671 Y189.27 E.04602
G3 X186.216 Y88.127 I1.329 J-79.279 E12.64311
G3 X189.288 Y109.378 I-76.146 J21.854 E.77767
M73 P0 R299
G3 X110.445 Y189.28 I-79.288 J.612 E4.503
G1 X109.985 Y189.288 E.01661
G1 X110.446 Y189.738 F9600
;TYPE:Outer wall
G1 F1800
G3 X186.144 Y86.291 I-.447 J-79.747 E12.71607
G3 X189.745 Y109.378 I-76.487 J23.754 E.8467
G3 X110.486 Y189.738 I-79.746 J.613 E4.52748
G1 E-.7 F2400
;WIPE_START
G1 F1800
G1 X109.486 Y189.738 E-.3
;WIPE_END
G1 Z.4 F9600
G1 X161.307 Y74.492 Z.4
G1 Z.2
G1 E1 F2400
;TYPE:Inner wall
G1 F1800
G1 X160.944 Y74.196 E.01692
G1 X160.675 Y73.789 E.01763
G1 X160.542 Y73.325 E.01742
G3 X160.529 Y68.079 I197.314 J-3.112 E.18943
G1 X160.601 Y67.603 E.01738
G1 X160.853 Y67.113 E.01987
G1 X161.177 Y66.793 E.01644
G1 X161.676 Y66.544 E.02016
G1 X162.213 Y66.479 E.01953
G1 X172.171 Y66.479 E.35955
G1 X172.693 Y66.566 E.01911
G1 X173.143 Y66.808 E.01844
G1 X173.499 Y67.185 E.01871
G3 X173.731 Y67.721 I-1.327 J.893 E.02121
G1 X173.771 Y68.332 E.0221
G1 X173.771 Y73.121 E.17294
G1 X173.71 Y73.561 E.01603
G1 X173.476 Y74.047 E.01947
G1 X173.165 Y74.375 E.01632
G1 X172.723 Y74.623 E.01833
G1 X172.263 Y74.719 E.01695
G3 X162.129 Y74.721 I-5.484 J-1614.351 E.36591
G1 X161.744 Y74.674 E.014
G1 X161.342 Y74.51 E.01566
G1 X161.548 Y74.096 F9600
G1 F1800
G1 X161.496 Y74.073 E.00207
G1 X161.204 Y73.793 E.01462
G1 X161.027 Y73.426 E.01468
G1 X160.986 Y73.121 E.01111
G1 X160.986 Y68.079 E.18208
G1 X161.038 Y67.739 E.01241
G1 X161.217 Y67.389 E.01419
G1 X161.449 Y67.16 E.01174
G1 X161.805 Y66.982 E.0144
G1 X162.213 Y66.936 E.01482
G1 X172.171 Y66.936 E.35955
G1 X172.544 Y66.998 E.01365
G1 X172.866 Y67.171 E.01317
G1 X173.133 Y67.461 E.01424
G1 X173.285 Y67.823 E.01419
G1 X173.314 Y68.332 E.01839
G1 X173.314 Y73.121 E.17294
G1 X173.27 Y73.435 E.01145
G1 X173.103 Y73.783 E.0139
G1 X172.881 Y74.017 E.01166
G1 X172.565 Y74.194 E.01309
G1 X172.171 Y74.264 E.01444
G1 X162.129 Y74.264 E.36261
G1 X161.854 Y74.231 E.01
G1 X161.585 Y74.112 E.01061
G1 X161.64 Y73.583 F9600
G1 F1800
G1 X161.505 Y73.407 E.00798
G1 X161.443 Y73.121 E.01057
G1 X161.443 Y68.079 E.18208
G1 X161.513 Y67.777 E.01119
G1 X161.721 Y67.528 E.01171
G1 X162.045 Y67.393 E.01267
G1 X172.171 Y67.393 E.36564
G1 X172.395 Y67.43 E.00819
G1 X172.665 Y67.603 E.01158
G1 X172.798 Y67.8 E.00855
G1 X172.857 Y68.079 E.01029
G1 X172.857 Y73.121 E.18208
G1 X172.786 Y73.425 E.01127
G1 X172.597 Y73.659 E.01083
G1 X172.35 Y73.783 E.01
G1 X171.429 Y73.807 E.03326
G1 X162.129 Y73.807 E.33581
G1 X161.964 Y73.787 E.006
G1 X161.69 Y73.648 E.01109
G1 X161.664 Y73.615 E.00152
G1 X162.129 Y73.35 F9600
;TYPE:Outer wall
G1 F1800
G1 X161.933 Y73.24 E.0081
G1 X161.9 Y73.121 E.00444
G1 X161.9 Y68.079 E.18208
G1 X161.971 Y67.913 E.00649
G1 X162.129 Y67.85 E.00614
G1 X172.171 Y67.85 E.36261
G1 X172.336 Y67.92 E.00646
G1 X172.4 Y68.079 E.00617
G1 X172.4 Y73.121 E.18208
G1 X172.336 Y73.28 E.00617
G1 X172.171 Y73.35 E.00647
G1 X162.169 Y73.35 E.36117
G1 E-.7 F2400
;WIPE_START
G1 F1800
G1 X161.933 Y73.24 E-.07799
G1 X161.9 Y73.121 E-.03688
G1 X161.9 Y72.504 E-.18513
;WIPE_END
G1 Z.4 F9600
G1 X156.721 Y65.627 Z.4
G1 Z.2
G1 E1 F2400
;TYPE:Inner wall
G1 F1800
G1 X156.524 Y65.569 E.00743
G3 X157.498 Y58.766 I1.206 J-3.299 E.34559
G1 X157.775 Y58.75 E.01001
G1 X158.497 Y58.843 E.02629
G3 X160.778 Y64.005 I-.779 J3.429 E.23648
G1 X160.397 Y64.569 E.02457
G1 X159.816 Y65.096 E.02832
G3 X156.961 Y65.697 I-2.086 J-2.826 E.10865
G1 X156.76 Y65.638 E.00756
G1 X157.028 Y65.245 F9600
G1 F1800
G1 X157.026 Y65.245 E.00008
G1 X156.714 Y65.153 E.01174
G1 X156.216 Y64.926 E.01975
G1 X155.943 Y64.75 E.01174
G1 X155.529 Y64.392 E.01975
G1 X155.316 Y64.146 E.01174
G1 X155.021 Y63.686 E.01975
G1 X154.885 Y63.39 E.01174
G1 X154.73 Y62.861 E.01991
G1 X154.685 Y62.544 E.01158
G1 X154.685 Y61.997 E.01975
G1 X154.732 Y61.674 E.01178
G1 X154.887 Y61.147 E.01984
G1 X155.022 Y60.851 E.01173
G1 X155.317 Y60.394 E.01965
G1 X155.529 Y60.148 E.01172
G1 X155.943 Y59.79 E.01975
G1 X156.216 Y59.614 E.01174
G1 X156.714 Y59.387 E.01975
G1 X157.025 Y59.296 E.01172
G3 X157.762 Y59.207 I.879 J4.188 E.02681
G1 X158.433 Y59.295 E.02444
G1 X158.746 Y59.387 E.01178
G1 X159.243 Y59.614 E.01975
G3 X160.029 Y60.246 I-2.358 J3.743 E.03648
G1 X160.439 Y60.854 E.02649
G1 X160.574 Y61.15 E.01174
G1 X160.728 Y61.675 E.01975
G1 X160.774 Y61.997 E.01174
G1 X160.774 Y62.544 E.01975
G1 X160.728 Y62.866 E.01174
G1 X160.574 Y63.39 E.01975
G1 X160.393 Y63.758 E.01478
G1 X160.05 Y64.272 E.02232
G1 X159.517 Y64.75 E.02587
G1 X159.243 Y64.926 E.01174
G1 X158.746 Y65.153 E.01975
G1 X158.434 Y65.245 E.01174
G1 X157.892 Y65.323 E.01975
G1 X157.567 Y65.323 E.01174
G1 X157.068 Y65.251 E.01822
G1 X157.097 Y64.793 F9600
G1 F1800
G1 X157.091 Y64.793 E.00023
G1 X156.406 Y64.51 E.02674
G1 X155.829 Y64.047 E.02674
G1 X155.414 Y63.453 E.02614
G3 X155.145 Y62.602 I3.666 J-1.629 E.03229
G1 X155.142 Y61.997 E.02187
G1 X155.325 Y61.276 E.02686
G1 X155.701 Y60.641 E.02663
G1 X156.242 Y60.136 E.02673
G1 X156.772 Y59.863 E.02152
G1 X157.09 Y59.748 E.01223
G1 X157.629 Y59.67 E.01965
G1 X158.368 Y59.748 E.02683
G1 X159.053 Y60.03 E.02676
G1 X159.631 Y60.494 E.02674
G1 X160.054 Y61.101 E.02674
G1 X160.289 Y61.804 E.02674
G1 X160.317 Y62.544 E.02674
G1 X160.135 Y63.262 E.02674
G1 X159.759 Y63.899 E.02674
G1 X159.218 Y64.405 E.02674
G1 X158.556 Y64.738 E.02674
G1 X157.827 Y64.87 E.02674
G1 X157.137 Y64.797 E.02507
G1 X157.642 Y64.403 F9600
;TYPE:Outer wall
G1 F1800
G1 X157.156 Y64.34 E.0177
G1 X156.596 Y64.095 E.02207
G1 X156.128 Y63.701 E.02207
G1 X155.799 Y63.206 E.02147
G1 X155.609 Y62.608 E.02266
G1 X155.599 Y61.997 E.02207
G1 X155.764 Y61.405 E.02218
G1 X156.085 Y60.888 E.02197
G1 X156.541 Y60.481 E.02207
G1 X157.093 Y60.219 E.02207
G1 X157.694 Y60.123 E.02197
G1 X158.303 Y60.2 E.02217
G1 X158.863 Y60.446 E.02208
G1 X159.332 Y60.839 E.02208
G1 X159.67 Y61.349 E.02207
G1 X159.851 Y61.932 E.02207
G1 X159.86 Y62.544 E.02207
G1 X159.697 Y63.133 E.02207
G1 X159.374 Y63.652 E.02207
G1 X158.918 Y64.059 E.02207
G1 X158.366 Y64.322 E.02207
G1 X157.762 Y64.418 E.02207
G1 X157.682 Y64.408 E.00293
G1 E-.7 F2400
;WIPE_START
G1 F1800
G1 X157.156 Y64.34 E-.15909
G1 X156.726 Y64.152 E-.14091
;WIPE_END
G1 Z.4 F9600
G1 X127.359 Y43.521 Z.4
G1 Z.2
G1 E1 F2400
;TYPE:Inner wall
G1 F1800
G1 X113.829 Y43.521 E.48854
G1 X113.349 Y43.448 E.01753
G1 X112.828 Y43.17 E.0213
G1 X112.507 Y42.823 E.01709
G1 X112.303 Y42.403 E.01683
G1 X112.229 Y41.921 E.0176
G1 X112.229 Y35.579 E.22902
G1 X112.283 Y35.165 E.01508
G3 X112.94 Y34.248 I1.71 J.532 E.0414
G1 X113.367 Y34.047 E.01706
G1 X113.829 Y33.979 E.01683
G1 X126.897 Y33.979 E.47186
G1 X127.284 Y33.993 E.01398
;WIDTH:0.472302
G1 X127.671 Y34.006 E.01314
;WIDTH:0.444605
G1 X128.025 Y34.063 E.01136
;WIDTH:0.46043
G1 X128.504 Y34.236 E.01679
;WIDTH:0.499999
G1 X129.031 Y34.735 E.02622
G1 X129.271 Y35.373 E.0246
G1 X129.271 Y41.921 E.23644
G1 X129.207 Y42.371 E.01638
G1 X129.019 Y42.784 E.0164
G1 X128.736 Y43.115 E.01573
G1 X128.337 Y43.376 E.0172
G1 X127.826 Y43.521 E.01921
G1 X127.399 Y43.521 E.01539
G1 X127.51 Y43.064 F9600
G1 F1800
G1 X113.829 Y43.064 E.49399
G1 X113.428 Y42.992 E.01471
G1 X113.059 Y42.766 E.01561
G1 X112.827 Y42.472 E.01352
G1 X112.699 Y42.096 E.01435
G1 X112.686 Y41.538 E.02015
G1 X112.686 Y35.579 E.21515
G3 X113.499 Y34.484 I1.177 J.026 E.05249
G1 X113.829 Y34.436 E.01202
G1 X127.671 Y34.436 E.49981
G1 X127.931 Y34.466 E.00944
G1 X128.274 Y34.607 E.01338
G1 X128.643 Y34.976 E.01884
G1 X128.814 Y35.432 E.01757
G1 X128.814 Y41.921 E.23432
G1 X128.741 Y42.325 E.01479
G1 X128.559 Y42.641 E.01318
G1 X128.258 Y42.902 E.01439
G1 X127.836 Y43.064 E.01631
G1 X127.55 Y43.064 E.01033
G1 X127.171 Y42.607 F9600
G1 F1800
G1 X113.823 Y42.607 E.48197
G1 X113.571 Y42.557 E.00925
G1 X113.312 Y42.373 E.01148
G1 X113.166 Y42.096 E.0113
G1 X113.143 Y41.538 E.0202
G1 X113.143 Y35.579 E.21515
G1 X113.218 Y35.268 E.01155
G1 X113.448 Y35.008 E.01251
G1 X113.744 Y34.898 E.01142
G1 X127.671 Y34.893 E.50286
G3 X128.254 Y35.217 I-.041 J.76 E.02492
G1 X128.357 Y35.579 E.01357
G1 X128.357 Y41.921 E.22902
G1 X128.293 Y42.211 E.01072
G1 X128.107 Y42.451 E.01096
G1 X127.788 Y42.607 E.01283
G1 X127.211 Y42.607 E.0208
G1 X127.671 Y42.15 F9600
;TYPE:Outer wall
G1 F1800
G1 X113.827 Y42.15 E.49988
G1 X113.743 Y42.133 E.00308
G1 X113.6 Y41.992 E.00727
G1 X113.6 Y35.579 E.23155
G1 X113.655 Y35.429 E.00574
G1 X113.8 Y35.352 E.00594
G1 X127.671 Y35.35 E.50083
G1 X127.792 Y35.384 E.00452
G1 X127.9 Y35.546 E.00701
G1 X127.9 Y41.921 E.23021
G1 X127.834 Y42.082 E.00625
G1 X127.708 Y42.135 E.00494
G1 E-.7 F2400
;WIPE_START
G1 F1800
G1 X126.708 Y42.136 E-.3
;WIPE_END
G1 Z.4 F9600
G1 X61.396 Y65.667 Z.4
G1 Z.2
G1 E1 F2400
;TYPE:Inner wall
G1 F1800
G1 X61.067 Y65.563 E.01247
G3 X65.369 Y60.615 I1.206 J-3.296 E.49059
G1 X65.524 Y60.932 E.01275
G1 X65.707 Y61.546 E.02314
G3 X61.495 Y65.689 I-3.435 J.721 E.25358
G1 X61.435 Y65.676 E.0022
G1 X61.707 Y65.265 F9600
G1 F1800
G1 X61.561 Y65.24 E.00533
G3 X59.272 Y61.674 I.71 J-2.974 E.16903
G1 X59.428 Y61.147 E.01984
G1 X59.563 Y60.851 E.01173
G1 X59.857 Y60.394 E.01965
G1 X60.07 Y60.148 E.01172
G1 X60.483 Y59.79 E.01975
G1 X60.757 Y59.614 E.01174
G1 X61.254 Y59.387 E.01975
G1 X61.566 Y59.296 E.01172
G1 X62.104 Y59.218 E.01965
G1 X62.429 Y59.218 E.01173
G1 X62.973 Y59.295 E.01984
G3 X63.92 Y59.688 I-1.061 J3.895 E.03711
G1 X64.471 Y60.148 E.02592
G1 X64.684 Y60.394 E.01174
G3 X65.094 Y61.086 I-2.76 J2.103 E.02911
G1 X65.269 Y61.675 E.02217
G1 X65.315 Y61.997 E.01174
G1 X65.315 Y62.544 E.01975
G1 X65.269 Y62.866 E.01174
G1 X65.115 Y63.39 E.01975
G3 X62.108 Y65.319 I-2.843 J-1.124 E.13774
G1 X61.747 Y65.271 E.01316
G1 X61.939 Y64.825 F9600
G1 F1800
G1 X61.631 Y64.793 E.01119
G1 X60.947 Y64.51 E.02674
G1 X60.369 Y64.047 E.02674
G1 X59.946 Y63.439 E.02674
G1 X59.711 Y62.737 E.02674
G1 X59.683 Y61.997 E.02674
G3 X59.947 Y61.099 I3.677 J.594 E.03389
G1 X60.242 Y60.641 E.01965
G3 X60.947 Y60.03 I2.763 J2.477 E.03377
G1 X61.444 Y59.803 E.01975
G1 X62.17 Y59.67 E.02663
G1 X62.909 Y59.748 E.02683
G1 X63.594 Y60.03 E.02676
G1 X64.171 Y60.494 E.02674
G1 X64.595 Y61.101 E.02674
G1 X64.83 Y61.804 E.02674
G1 X64.858 Y62.544 E.02674
G3 X64.586 Y63.453 I-3.52 J-.557 E.03437
G1 X64.296 Y63.905 E.01938
G1 X63.758 Y64.405 E.02651
G1 X63.096 Y64.738 E.02674
G1 X62.368 Y64.87 E.02674
G1 X61.979 Y64.829 E.01411
G1 X62.354 Y64.41 F9600
;TYPE:Outer wall
G1 F1800
G1 X62.303 Y64.418 E.00187
G1 X61.696 Y64.34 E.02207
G1 X61.137 Y64.095 E.02207
G1 X60.668 Y63.701 E.02207
G1 X60.33 Y63.192 E.02207
G1 X60.149 Y62.608 E.02207
G1 X60.14 Y61.997 E.02207
G1 X60.304 Y61.405 E.02218
G1 X60.626 Y60.888 E.02197
G1 X61.082 Y60.481 E.02207
G1 X61.634 Y60.219 E.02207
G1 X62.235 Y60.123 E.02197
G1 X62.844 Y60.2 E.02217
G1 X63.404 Y60.446 E.02208
G1 X63.872 Y60.839 E.02207
G1 X64.21 Y61.349 E.02207
G1 X64.391 Y61.932 E.02207
G1 X64.401 Y62.544 E.02207
G1 X64.237 Y63.133 E.02207
G1 X63.915 Y63.652 E.02207
G1 X63.459 Y64.059 E.02207
G1 X62.907 Y64.322 E.02207
G1 X62.393 Y64.404 E.01876
G1 E-.7 F2400
;WIPE_START
G1 F1800
G1 X62.303 Y64.418 E-.02753
G1 X61.696 Y64.34 E-.18341
G1 X61.425 Y64.221 E-.08906
;WIPE_END
G1 Z.4 F9600
G1 X108.77 Y126.57 Z.4
G1 Z.2
G1 E1 F2400
;TYPE:Inner wall
G1 F1800
G1 X108.405 Y126.543 E.01321
G3 X93.948 Y105.709 I1.601 J-16.545 E1.04147
G3 X104.592 Y94.288 I16.06 J4.298 E.58678
G3 X126.052 Y114.291 I5.409 J15.711 E1.29802
G3 X110.897 Y126.597 I-16.052 J-4.284 E.75342
G3 X109.186 Y126.6 I-.89 J-16.598 E.06181
G1 X108.81 Y126.573 E.01361
G1 X109.102 Y126.137 F9600
G1 F1800
G1 X108.44 Y126.087 E.02395
G3 X104.743 Y94.72 I1.568 J-16.086 E1.58298
G3 X125.611 Y114.175 I5.258 J15.279 E1.26232
G3 X110.861 Y126.141 I-15.61 J-4.168 E.73303
G3 X109.197 Y126.143 I-.853 J-16.14 E.06011
G1 X109.142 Y126.139 E.00201
G1 X109.274 Y125.689 F9600
G1 F1800
G1 X109.209 Y125.687 E.00235
G3 X125.169 Y114.058 I.789 J-15.683 E2.79134
G3 X110.826 Y125.685 I-15.168 J-4.051 E.71264
M73 P0 R298
G3 X110.018 Y125.707 I-.828 J-15.681 E.02921
G1 X109.314 Y125.69 E.02541
G1 X109.785 Y125.244 F9600
;TYPE:Outer wall
G1 F1800
G1 X109.221 Y125.23 E.02038
G3 X124.727 Y113.942 I.777 J-15.226 E2.70979
G3 X110.791 Y125.229 I-14.726 J-3.934 E.69226
G3 X110.006 Y125.25 I-.793 J-15.225 E.02836
G1 X109.825 Y125.245 E.00653
G1 E-.7 F2400
;WIPE_START
G1 F1800
G1 X109.221 Y125.23 E-.18135
G1 X108.827 Y125.2 E-.11865
;WIPE_END
G1 Z.4 F9600
G1 X156.814 Y161.114 Z.4
G1 Z.2
G1 E1 F2400
;TYPE:Inner wall
G1 F1800
G1 X156.524 Y161.028 E.01092
G3 X154.228 Y157.456 I1.206 J-3.299 E.16464
G1 X154.251 Y157.189 E.00969
G3 X154.571 Y156.177 I6.043 J1.358 E.03836
G1 X154.932 Y155.607 E.02438
G3 X156.961 Y161.157 I2.798 J2.123 E.54324
G1 X156.853 Y161.125 E.00407
G1 X157.124 Y160.718 F9600
G1 F1800
G1 X157.026 Y160.704 E.00357
G3 X156.08 Y160.312 I1.128 J-4.054 E.03706
G1 X155.529 Y159.852 E.02592
G1 X155.316 Y159.606 E.01174
G1 X155.021 Y159.146 E.01975
G1 X154.885 Y158.85 E.01174
G1 X154.731 Y158.325 E.01975
G1 X154.685 Y158.003 E.01174
G3 X154.701 Y157.265 I4.393 J-.273 E.02668
G1 X154.885 Y156.61 E.02459
G3 X160.728 Y158.326 I2.843 J1.124 E.32674
G1 X160.572 Y158.853 E.01984
G1 X160.437 Y159.149 E.01173
G1 X160.143 Y159.606 E.01965
G1 X159.93 Y159.852 E.01172
G1 X159.517 Y160.21 E.01975
G1 X159.243 Y160.386 E.01174
G1 X158.746 Y160.613 E.01975
G1 X158.434 Y160.704 E.01174
G1 X157.892 Y160.782 E.01975
G1 X157.567 Y160.782 E.01174
G1 X157.163 Y160.724 E.01473
G1 X157.231 Y160.267 F9600
G1 F1800
G1 X157.091 Y160.252 E.00509
G1 X156.406 Y159.97 E.02674
G1 X155.829 Y159.506 E.02674
G1 X155.405 Y158.899 E.02674
G1 X155.17 Y158.196 E.02674
G1 X155.142 Y157.456 E.02674
G1 X155.324 Y156.738 E.02674
G1 X155.701 Y156.101 E.02674
G1 X156.242 Y155.595 E.02674
G1 X156.904 Y155.262 E.02674
