; HEADER_BLOCK_START
; generated by Creality_Print V5.1.6.10470 on 2024-12-24 at 12:49:25
; total layer number: 125
; filament_density: 1.24
; filament_diameter: 1.75
; max_z_height: 25.00
; HEADER_BLOCK_END

; MINX = 40.00
; MINY = 40.00
; MINZ = 0.00
; MAXX = 180.00
; MAXY = 180.00
; MAXZ = 25.00

; THUMBNAIL_BLOCK_START

;
; THUMBNAIL_BLOCK_END

; external perimeters extrusion width = 0.42mm
; perimeters extrusion width = 0.45mm
; infill extrusion width = 0.45mm
; solid infill extrusion width = 0.45mm
; top infill extrusion width = 0.42mm
; first layer extrusion width = 0.50mm

; EXECUTABLE_BLOCK_START
M73 P0 R325
M201 X500 Y500 Z100 E5000
M203 X500 Y500 Z10 E60
M204 P500 R1000 T500
M205 X8.00 Y8.00 Z0.40 E5.00 ; sets the jerk limits, mm/sec
;TYPE:Custom
G90 ; use absolute coordinates
M83 ; extruder relative mode
M104 S150 ; set temporary nozzle temp to prevent oozing during homing
M140 S60 ; set final bed temp
G4 S30 ; allow partial nozzle warmup
G28 ; home all axis and restore leveling
G1 Z50 F240
G1 X2.0 Y10 F3000
M104 S220 ; set final nozzle temp
M190 S60 ; wait for bed temp to stabilize
M109 S220 ; wait for nozzle temp to stabilize
M73 P0 R324
G1 Z0.28 F240
G92 E0
G1 X2.0 Y140 E10 F1500 ; prime the nozzle
G1 X2.3 Y140 F5000
G92 E0
G1 X2.3 Y10 E10 F1200 ; prime the nozzle
G92 E0
G90
G21
M83 ; use relative distances for extrusion
; filament start gcode
M106 S0
;LAYER_CHANGE
;Z:0.2
;HEIGHT:0.2
;BEFORE_LAYER_CHANGE
;0.2
G92 E0

G1 E-1 F2400
;_SET_FAN_SPEED_CHANGING_LAYER
M204 S500
M205 X8 Y8
; printing object wheel_frame_ver2_1.STEP id:18256778550736337296 copy 0
G1 Z.2 F9600
G1 X83.708 Y40.707
G1 Z.2
G1 E1 F2400
;TYPE:Inner wall
;WIDTH:0.499999
G1 F1800
G1 X136.79 Y40.707 E1.91661
G3 X179.293 Y83.208 I-26.822 J69.326 E2.23414
G1 X179.293 Y136.79 E1.93466
G3 X136.792 Y179.293 I-69.326 J-26.822 E2.23414
G1 X83.21 Y179.293 E1.93466
G3 X40.707 Y136.792 I26.822 J-69.326 E2.23414
G1 X40.707 Y83.21 E1.93466
G3 X83.208 Y40.707 I69.326 J26.822 E2.23414
G1 X83.668 Y40.707 E.01661
G1 X83.121 Y40.25 F9600
;TYPE:Outer wall
G1 F1800
G1 X136.878 Y40.25 E1.94093
G3 X179.75 Y83.121 I-26.915 J69.788 E2.25394
G1 X179.75 Y136.878 E1.94093
G3 X136.879 Y179.75 I-69.788 J-26.915 E2.25394
G1 X83.122 Y179.75 E1.94093
G3 X40.25 Y136.879 I26.915 J-69.788 E2.25394
G1 X40.25 Y83.122 E1.94093
M73 P0 R323
G3 X83.084 Y40.264 I69.788 J26.915 E2.2525
G1 E-.7 F2400
;WIPE_START
G1 F1800
G1 X84.084 Y40.264 E-.3
;WIPE_END
G1 Z.4 F9600
G1 X128.884 Y79.476 Z.4
G1 Z.2
G1 E1 F2400
;TYPE:Inner wall
G1 F1800
G1 X128.884 Y74.933 E.16403
G1 X128.95 Y74.641 E.0108
G1 X129.141 Y74.399 E.01115
G1 X129.453 Y74.248 E.01253
G1 X139.618 Y74.248 E.36701
G1 X139.915 Y74.318 E.01104
G1 X140.158 Y74.517 E.01134
G1 X140.286 Y74.805 E.01137
G3 X140.298 Y79.976 I-228.244 J3.122 E.18672
G1 X140.235 Y80.265 E.01068
G1 X140.041 Y80.511 E.01129
G1 X139.764 Y80.645 E.01112
G1 X138.822 Y80.662 E.03403
G1 X129.57 Y80.662 E.33405
G1 X129.267 Y80.592 E.01121
G1 X129.035 Y80.405 E.01078
G1 X128.884 Y80.108 E.01201
G1 X128.884 Y79.516 E.02136
G1 X129.341 Y79.976 F9600
;TYPE:Outer wall
G1 F1800
G1 X129.341 Y74.933 E.18208
G1 X129.412 Y74.768 E.0065
G1 X129.57 Y74.705 E.00613
G1 X139.614 Y74.705 E.36267
G1 X139.775 Y74.772 E.00629
G1 X139.841 Y74.933 E.00629
G1 X139.841 Y79.976 E.18208
G1 X139.773 Y80.14 E.0064
G1 X139.613 Y80.205 E.00624
G1 X129.57 Y80.205 E.36261
G1 X129.408 Y80.138 E.00632
G1 X129.357 Y80.013 E.00486
G1 E-.7 F2400
;WIPE_START
G1 F1800
G1 X129.354 Y79.013 E-.3
;WIPE_END
G1 Z.4 F9600
G1 X94.852 Y79.166 Z.4
G1 Z.2
G1 E1 F2400
;TYPE:Inner wall
G1 F1800
G1 X94.841 Y74.616 E.16426
G1 X94.913 Y74.314 E.01121
G1 X95.117 Y74.072 E.01144
G1 X95.432 Y73.936 E.01237
G1 X105.569 Y73.936 E.36602
G1 X105.875 Y74.008 E.01133
G1 X106.118 Y74.21 E.01142
G1 X106.255 Y74.522 E.01228
G1 X106.255 Y79.665 E.1857
G1 X106.182 Y79.972 E.01139
G1 X105.981 Y80.213 E.01132
G1 X105.783 Y80.316 E.00809
G1 X105.569 Y80.35 E.00781
G1 X95.526 Y80.35 E.36261
G1 X95.222 Y80.279 E.0113
G1 X94.983 Y80.083 E.01116
G1 X94.854 Y79.797 E.01131
G1 X94.852 Y79.206 E.02136
G1 X95.298 Y79.665 F9600
;TYPE:Outer wall
G1 F1800
G1 X95.298 Y74.62 E.18214
G1 X95.366 Y74.459 E.00632
G1 X95.526 Y74.393 E.00626
G1 X105.569 Y74.393 E.36261
G1 X105.731 Y74.46 E.00633
G1 X105.798 Y74.622 E.0063
G1 X105.798 Y79.665 E.18208
G1 X105.727 Y79.83 E.0065
G1 X105.607 Y79.893 E.00488
G1 X95.526 Y79.893 E.36398
G1 X95.364 Y79.825 E.00635
G1 X95.313 Y79.702 E.00483
G1 E-.7 F2400
;WIPE_START
G1 F1800
G1 X95.31 Y78.702 E-.3
;WIPE_END
G1 Z.4 F9600
G1 X90.298 Y170.22 Z.4
G1 Z.2
G1 E1 F2400
;TYPE:Inner wall
G1 F1800
G1 X90.293 Y150 E.73007
G1 X90.338 Y149.436 E.02042
G1 X90.484 Y148.831 E.02249
G1 X90.73 Y148.258 E.02249
G1 X91.068 Y147.735 E.02249
G1 X91.488 Y147.276 E.02249
G1 X91.98 Y146.894 E.02249
G1 X92.529 Y146.599 E.02249
G1 X93.12 Y146.401 E.02249
G1 X93.733 Y146.305 E.02242
G1 X136 Y146.293 E1.5261
G1 X136.564 Y146.338 E.02041
G1 X137.168 Y146.484 E.02243
G1 X137.742 Y146.73 E.02255
G1 X138.265 Y147.068 E.02249
G1 X138.723 Y147.487 E.02242
G1 X139.106 Y147.98 E.02254
G1 X139.401 Y148.529 E.0225
G1 X139.599 Y149.119 E.02249
G1 X139.702 Y149.778 E.02405
G1 X139.707 Y170 E.73016
G1 X139.662 Y170.564 E.02041
G1 X139.516 Y171.167 E.02242
G1 X139.27 Y171.741 E.02254
G1 X138.932 Y172.265 E.0225
G1 X138.513 Y172.723 E.02242
G1 X138.02 Y173.106 E.02254
G1 X137.471 Y173.401 E.0225
G1 X136.88 Y173.599 E.02249
G1 X136.224 Y173.702 E.02399
G1 X94 Y173.707 E1.52455
G1 X93.436 Y173.662 E.02041
G1 X92.831 Y173.516 E.02249
G1 X92.258 Y173.27 E.02249
G1 X91.735 Y172.932 E.02249
G1 X91.276 Y172.512 E.02249
G1 X90.894 Y172.02 E.02249
G1 X90.599 Y171.471 E.02249
G1 X90.401 Y170.881 E.02249
G1 X90.302 Y170.26 E.0227
G1 X90.822 Y170.642 F9600
;TYPE:Outer wall
G1 F1800
G1 X90.755 Y170.186 E.01665
G1 X90.75 Y150 E.72885
G3 X90.927 Y148.945 I3.277 J.007 E.03879
G3 X93.797 Y146.757 I3.115 J1.11 E.13783
G1 X136 Y146.75 E1.52379
G3 X139.245 Y149.814 I-.032 J3.284 E.17716
G1 X139.25 Y170 E.72885
G3 X136.188 Y173.245 I-3.284 J-.032 E.1771
G1 X94 Y173.25 E1.52324
G3 X90.84 Y170.741 I.032 J-3.284 E.15687
G1 X90.829 Y170.682 E.00217
G1 E-.7 F2400
;WIPE_START
G1 F1800
G1 X90.755 Y170.186 E-.15032
G1 X90.755 Y169.687 E-.14968
;WIPE_END
G1 Z.4 F9600
G1 X166.127 Y61.613
G1 Z.4
G1 Z.2
G1 E1 F2400
;TYPE:Bottom surface
;WIDTH:0.500522
G1 F3000
G1 X161.946 Y57.431 E.21376
G2 X156.148 Y52.28 I-53.013 J53.835 E.28046
G1 X167.738 Y63.871 E.59249
G3 X169.806 Y66.586 I-69.633 J55.183 E.12339
G1 X153.425 Y50.205 E.83738
G2 X151.265 Y48.693 I-48.859 J67.463 E.09532
G1 X171.302 Y68.729 E1.02425
G3 X172.525 Y70.599 I-40.037 J27.519 E.08079
G1 X149.415 Y47.489 E1.18137
G2 X147.745 Y46.467 I-23.144 J35.919 E.07078
G1 X173.54 Y72.261 E1.31859
G3 X174.424 Y73.792 I-32.955 J20.05 E.06393
G1 X146.211 Y45.58 E1.44223
G2 X144.781 Y44.797 I-17.8 J30.814 E.05894
G1 X175.208 Y75.224 E1.55544
G3 X175.913 Y76.576 I-29.031 J15.998 E.05513
G1 X143.433 Y44.096 E1.66041
G2 X142.155 Y43.465 I-15.879 J30.574 E.05149
G1 X176.545 Y77.855 E1.758
G3 X177.119 Y79.076 I-26.417 J13.16 E.04877
G1 X140.922 Y42.879 E1.8504
G1 X139.741 Y42.345 E.04684
G1 X177.648 Y80.252 E1.93779
G3 X178.136 Y81.388 I-20.181 J9.357 E.04471
G1 X138.612 Y41.864 E2.02047
G2 X137.515 Y41.414 I-10.371 J23.719 E.04288
G1 X178.578 Y82.476 E2.09913
G1 X178.904 Y83.282 E.03142
G1 X178.904 Y83.45 E.00608
G1 X136.55 Y41.096 E2.16516
G1 X135.903 Y41.096 E.02339
G1 X178.904 Y84.097 E2.19824
G1 X178.904 Y84.744 E.02339
G1 X135.256 Y41.096 E2.23132
G1 X134.608 Y41.096 E.02339
G1 X178.904 Y85.392 E2.26441
G1 X178.904 Y86.039 E.02339
G1 X133.961 Y41.096 E2.29749
G1 X133.314 Y41.096 E.02339
G1 X178.904 Y86.686 E2.33057
G1 X178.904 Y87.333 E.02339
G1 X132.667 Y41.096 E2.36365
G1 X132.02 Y41.096 E.02339
G1 X178.904 Y87.98 E2.39674
G1 X178.904 Y88.627 E.02339
G1 X131.373 Y41.096 E2.42982
G1 X130.726 Y41.096 E.02339
G1 X178.904 Y89.274 E2.4629
G1 X178.904 Y89.922 E.02339
G1 X130.078 Y41.096 E2.49598
G1 X129.431 Y41.096 E.02339
G1 X178.904 Y90.569 E2.52906
G1 X178.904 Y91.216 E.02339
G1 X128.784 Y41.096 E2.56215
G1 X128.137 Y41.096 E.02339
G1 X178.904 Y91.863 E2.59523
G1 X178.904 Y92.51 E.02339
G1 X127.49 Y41.096 E2.62831
G1 X126.843 Y41.096 E.02339
G1 X178.904 Y93.157 E2.66139
G1 X178.904 Y93.804 E.02339
M73 P0 R322
G1 X126.196 Y41.096 E2.69447
G1 X125.548 Y41.096 E.02339
G1 X178.904 Y94.452 E2.72756
G1 X178.904 Y95.099 E.02339
G1 X124.901 Y41.096 E2.76064
G1 X124.254 Y41.096 E.02339
G1 X178.904 Y95.746 E2.79372
G1 X178.904 Y96.393 E.02339
G1 X123.607 Y41.096 E2.8268
G1 X122.96 Y41.096 E.02339
G1 X178.904 Y97.04 E2.85989
G1 X178.904 Y97.687 E.02339
G1 X122.313 Y41.096 E2.89297
G1 X121.666 Y41.096 E.02339
G1 X178.904 Y98.334 E2.92605
G1 X178.904 Y98.982 E.02339
G1 X121.018 Y41.096 E2.95913
G1 X120.371 Y41.096 E.02339
G1 X178.904 Y99.629 E2.99221
G1 X178.904 Y100.276 E.02339
G1 X119.724 Y41.096 E3.0253
G1 X119.077 Y41.096 E.02339
G1 X178.904 Y100.923 E3.05838
G1 X178.904 Y101.57 E.02339
G1 X118.43 Y41.096 E3.09146
G1 X117.783 Y41.096 E.02339
G1 X178.904 Y102.217 E3.12454
G1 X178.904 Y102.865 E.02339
G1 X117.135 Y41.096 E3.15762
G1 X116.488 Y41.096 E.02339
G1 X178.904 Y103.512 E3.19071
G1 X178.904 Y104.159 E.02339
G1 X115.841 Y41.096 E3.22379
G1 X115.194 Y41.096 E.02339
G1 X178.904 Y104.806 E3.25687
G1 X178.904 Y105.453 E.02339
G1 X114.547 Y41.096 E3.28995
G1 X113.9 Y41.096 E.02339
G1 X178.904 Y106.1 E3.32304
G1 X178.904 Y106.747 E.02339
G1 X113.253 Y41.096 E3.35612
G1 X112.605 Y41.096 E.02339
G1 X178.904 Y107.395 E3.3892
G1 X178.904 Y108.042 E.02339
G1 X111.958 Y41.096 E3.42228
G1 X111.311 Y41.096 E.02339
G1 X178.904 Y108.689 E3.45536
G1 X178.904 Y109.336 E.02339
G1 X110.664 Y41.096 E3.48845
G1 X110.017 Y41.096 E.02339
G1 X178.904 Y109.983 E3.52153
G1 X178.904 Y110.63 E.02339
G1 X109.37 Y41.096 E3.55461
G1 X108.723 Y41.096 E.02339
G1 X178.904 Y111.277 E3.58769
G1 X178.904 Y111.925 E.02339
G1 X108.075 Y41.096 E3.62077
G1 X107.428 Y41.096 E.02339
G1 X178.904 Y112.572 E3.65386
G1 X178.904 Y113.219 E.02339
G1 X140.687 Y75.001 E1.95368
G2 X139.546 Y73.86 I-1.08 J-.062 E.06585
G1 X106.781 Y41.096 E1.67493
G1 X106.134 Y41.096 E.02339
G1 X138.899 Y73.86 E1.67492
G1 X138.251 Y73.86 E.0234
G1 X105.487 Y41.096 E1.67492
G1 X104.84 Y41.096 E.02339
M73 P0 R321
G1 X137.604 Y73.86 E1.67491
G1 X136.957 Y73.86 E.0234
G1 X104.193 Y41.096 E1.67491
G1 X103.545 Y41.096 E.02339
G1 X136.31 Y73.86 E1.6749
G1 X135.662 Y73.86 E.0234
G1 X102.898 Y41.096 E1.67489
G1 X102.251 Y41.096 E.02339
G1 X135.015 Y73.859 E1.67489
G1 X134.368 Y73.859 E.0234
G1 X101.604 Y41.096 E1.67488
G1 X100.957 Y41.096 E.02339
G1 X133.72 Y73.859 E1.67488
G2 X133.074 Y73.86 I-.19 J289.129 E.02338
G1 X100.31 Y41.096 E1.67489
G1 X99.663 Y41.096 E.02339
G1 X132.427 Y73.86 E1.67492
G1 X131.781 Y73.861 E.02337
G1 X99.015 Y41.096 E1.67495
G1 X98.368 Y41.096 E.02339
G1 X131.134 Y73.861 E1.67498
G1 X130.487 Y73.862 E.02337
M73 P1 R321
G1 X97.721 Y41.096 E1.67502
G1 X97.074 Y41.096 E.02339
G1 X129.841 Y73.863 E1.67505
G2 X129.241 Y73.91 I-.183 J1.499 E.02189
G1 X96.427 Y41.096 E1.67747
G1 X95.78 Y41.096 E.02339
G1 X128.829 Y74.155 E1.68972
G2 X128.575 Y74.538 I.659 J.71 E.01678
G1 X95.133 Y41.096 E1.70959
G1 X94.485 Y41.096 E.02339
G1 X128.496 Y75.106 E1.73863
G1 X128.496 Y75.753 E.02339
G1 X93.838 Y41.096 E1.77171
G1 X93.191 Y41.096 E.02339
G1 X128.496 Y76.401 E1.80479
G1 X128.496 Y77.048 E.02339
G1 X92.544 Y41.096 E1.83787
G1 X91.897 Y41.096 E.02339
G1 X128.496 Y77.695 E1.87095
G1 X128.496 Y78.342 E.02339
G1 X91.25 Y41.096 E1.90403
G1 X90.602 Y41.096 E.02339
G1 X128.496 Y78.989 E1.93711
G1 X128.496 Y79.636 E.02339
G1 X89.75 Y40.89 E1.9807
G1 E-.7 F2400
;WIPE_START
G1 F3000
G1 X90.457 Y41.597 E-.3
;WIPE_END
G1 Z.4 F9600
G1 X140.481 Y75.443 Z.4
G1 Z.2
G1 E1 F2400
G1 F3000
G1 X178.904 Y113.866 E1.9642
G1 X178.904 Y114.513 E.02339
G1 X140.687 Y76.295 E1.9537
G1 X140.686 Y76.942 E.02338
G1 X178.904 Y115.16 E1.95371
G1 X178.904 Y115.807 E.02339
G1 X140.686 Y77.589 E1.95372
G1 X140.686 Y78.236 E.02338
G1 X178.904 Y116.455 E1.95373
G1 X178.904 Y117.102 E.02339
G1 X140.686 Y78.883 E1.95374
G1 X140.685 Y79.53 E.02338
G1 X178.904 Y117.749 E1.95375
G1 X178.904 Y118.396 E.02339
G1 X140.668 Y80.16 E1.95462
G3 X140.474 Y80.613 I-.841 J-.092 E.01808
G1 X178.904 Y119.043 E1.96455
G1 X178.904 Y119.69 E.02339
G1 X140.128 Y80.913 E1.98227
G3 X139.617 Y81.05 I-.509 J-.876 E.01932
G1 X178.904 Y120.337 E2.00835
G1 X178.904 Y120.985 E.02339
G1 X138.97 Y81.05 E2.04144
G1 X138.323 Y81.05 E.02339
G1 X178.904 Y121.632 E2.07452
G1 X178.904 Y122.279 E.02339
G1 X137.676 Y81.05 E2.1076
G1 X137.029 Y81.05 E.02339
G1 X178.904 Y122.926 E2.14069
G1 X178.904 Y123.573 E.02339
G1 X136.381 Y81.05 E2.17377
G1 X135.734 Y81.05 E.02339
G1 X178.904 Y124.22 E2.20685
G1 X178.904 Y124.868 E.02339
G1 X135.087 Y81.05 E2.23994
G1 X134.44 Y81.05 E.02339
G1 X178.904 Y125.515 E2.27302
G1 X178.904 Y126.162 E.02339
G1 X133.793 Y81.05 E2.3061
G1 X133.146 Y81.05 E.02339
G1 X178.904 Y126.809 E2.33918
G1 X178.904 Y127.456 E.02339
G1 X132.499 Y81.05 E2.37227
G1 X131.851 Y81.05 E.02339
G1 X178.904 Y128.103 E2.40535
G1 X178.904 Y128.75 E.02339
G1 X131.204 Y81.05 E2.43843
G1 X130.557 Y81.05 E.02339
G1 X178.904 Y129.398 E2.47152
G1 X178.904 Y130.045 E.02339
G1 X129.704 Y80.844 E2.51511
G1 E-.7 F2400
;WIPE_START
M73 P1 R320
G1 F3000
G1 X130.411 Y81.552 E-.3
;WIPE_END
G1 Z.4 F9600
G1 X89.102 Y40.89 Z.4
G1 Z.2
G1 E1 F2400
G1 F3000
G1 X178.904 Y130.692 E4.59067
G1 X178.904 Y131.339 E.02339
G1 X88.661 Y41.096 E4.61324
G1 X88.014 Y41.096 E.02339
G1 X178.904 Y131.986 E4.64632
G1 X178.904 Y132.633 E.02339
G1 X87.367 Y41.096 E4.6794
G1 X86.72 Y41.096 E.02339
G1 X178.904 Y133.28 E4.71248
G1 X178.904 Y133.928 E.02339
G1 X86.072 Y41.096 E4.74557
G1 X85.425 Y41.096 E.02339
G1 X178.904 Y134.575 E4.77865
G1 X178.904 Y135.222 E.02339
G1 X84.778 Y41.096 E4.81173
G1 X84.131 Y41.096 E.02339
G1 X178.904 Y135.869 E4.84481
G1 X178.904 Y136.516 E.02339
G1 X83.484 Y41.096 E4.8779
G1 X83.282 Y41.096 E.0073
G1 X82.965 Y41.224 E.01235
G1 X178.777 Y137.036 E4.8979
G1 X178.593 Y137.499 E.01801
G1 X82.505 Y41.411 E4.91202
G1 X82.044 Y41.597 E.01796
G1 X178.409 Y137.962 E4.92615
G3 X178.218 Y138.419 I-10.065 J-3.921 E.01789
G1 X81.584 Y41.784 E4.93996
G1 X81.123 Y41.971 E.01796
G1 X178.026 Y138.873 E4.95364
G1 X177.833 Y139.327 E.01784
G1 X80.673 Y42.168 E4.96679
G1 X80.223 Y42.365 E.01776
G1 X177.638 Y139.779 E4.97982
G1 X177.436 Y140.225 E.01768
G1 X79.773 Y42.562 E4.99252
G2 X79.328 Y42.764 I4.178 J9.82 E.01768
G1 X177.235 Y140.671 E5.005
G1 X177.033 Y141.116 E.01768
G1 X78.886 Y42.97 E5.01727
G1 X78.445 Y43.175 E.01761
G1 X176.825 Y141.555 E5.0292
G1 X176.615 Y141.993 E.01753
M73 P1 R319
G1 X78.004 Y43.381 E5.04102
G1 X77.571 Y43.595 E.01746
G1 X176.405 Y142.43 E5.05243
G3 X176.193 Y142.865 I-9.556 J-4.398 E.01749
G1 X77.137 Y43.809 E5.06372
G1 X76.704 Y44.023 E.01746
G1 X175.975 Y143.294 E5.07471
G1 X175.757 Y143.723 E.0174
G1 X106.642 Y74.608 E3.53317
G2 X105.582 Y73.548 I-1.085 J.025 E.0598
G1 X76.276 Y44.242 E1.49812
G1 X75.851 Y44.464 E.01733
G1 X104.934 Y73.548 E1.48676
G1 X104.287 Y73.548 E.02339
G1 X75.426 Y44.686 E1.4754
G1 X75.001 Y44.908 E.01733
G1 X103.64 Y73.548 E1.46403
G1 X102.993 Y73.548 E.02339
G1 X74.584 Y45.139 E1.45226
G1 X74.167 Y45.369 E.01721
G1 X102.346 Y73.548 E1.44049
G1 X101.699 Y73.548 E.02339
G1 X73.75 Y45.599 E1.42872
G2 X73.337 Y45.833 I4.895 J9.127 E.01717
G1 X101.052 Y73.548 E1.41676
G1 X100.404 Y73.548 E.02339
G1 X72.928 Y46.072 E1.40458
G1 X72.519 Y46.31 E.01711
G1 X99.757 Y73.548 E1.3924
G1 X99.11 Y73.548 E.02339
G1 X72.111 Y46.548 E1.38022
G2 X71.709 Y46.793 I5.151 J8.894 E.01702
G1 X98.463 Y73.548 E1.36768
G1 X97.816 Y73.548 E.02339
G1 X71.308 Y47.039 E1.3551
G1 X70.907 Y47.286 E.01701
G1 X97.169 Y73.548 E1.34251
G1 X96.521 Y73.548 E.02339
G1 X70.508 Y47.534 E1.32982
G1 X70.115 Y47.788 E.01692
G1 X95.874 Y73.548 E1.31684
G2 X95.263 Y73.584 I-.185 J2.048 E.02221
G1 X69.721 Y48.042 E1.3057
G1 X69.328 Y48.296 E.01692
G1 X94.835 Y73.803 E1.30391
G2 X94.553 Y74.167 I.829 J.934 E.01677
G1 X68.94 Y48.555 E1.30931
G1 X68.555 Y48.817 E.01684
